; generated by Slic3r Prusa Edition 1.41.0-beta+win64 on 2018-09-15 at 14:58:19

; 

; external perimeters extrusion width = 0.45mm
; perimeters extrusion width = 0.45mm
; infill extrusion width = 0.45mm
; solid infill extrusion width = 0.45mm
; top infill extrusion width = 0.40mm

M107
M80 ; turn on PSU
M190 S50
M104 S190 ; start E heating
M17; enable motors
G28 X Y ; Z ; Home
M109 S190
G91
G1 E5 F200
G90
; Filament gcode
G21 ; set units to millimeters
G90 ; use absolute coordinates
M82 ; use absolute distances for extrusion
G92 E0
G1 Z0.200 F4800.000
G1 E-1.00000 F3000.00000
G92 E0
G1 X144.029 Y107.802 F4800.000
G1 E1.00000 F3000.00000
G1 F900
G1 X144.541 Y106.955 E1.03184
G1 X145.439 Y105.954 E1.07506
G1 X146.269 Y105.323 E1.10859
G1 X147.417 Y104.779 E1.14945
G1 X148.241 Y104.522 E1.17721
G1 X149.104 Y104.423 E1.20515
G1 X228.012 Y104.389 E3.74254
G1 X229.771 Y104.572 E3.79940
G1 X231.407 Y105.090 E3.85456
G1 X232.955 Y105.954 E3.91160
G1 X234.088 Y106.919 E3.95944
G1 X234.697 Y107.596 E3.98874
G1 X235.643 Y109.038 E4.04418
G1 X236.234 Y110.461 E4.09372
G1 X236.581 Y112.221 E4.15143
G1 X236.593 Y177.577 E6.25304
G1 X236.255 Y179.463 E6.31463
G1 X235.681 Y180.880 E6.36381
G1 X235.229 Y181.671 E6.39310
G1 X234.166 Y183.009 E6.44806
G1 X232.982 Y184.027 E6.49828
G1 X231.436 Y184.898 E6.55532
G1 X229.787 Y185.425 E6.61100
G1 X228.044 Y185.610 E6.66736
G1 X149.401 Y185.609 E9.19624
G1 X147.901 Y185.372 E9.24505
G1 X147.031 Y185.086 E9.27451
G1 X146.234 Y184.634 E9.30398
G1 X145.060 Y183.690 E9.35243
G1 X144.476 Y182.937 E9.38308
G1 X143.785 Y181.638 E9.43038
G1 X143.537 Y180.751 E9.46001
G1 X143.406 Y179.449 E9.50207
G1 X143.404 Y110.322 E11.72495
G1 X143.540 Y109.235 E11.76018
G1 X144.010 Y107.859 E11.80694
G1 X144.393 Y107.990 F4800.000
G1 F900
G1 X144.875 Y107.189 E11.83701
G1 X145.727 Y106.242 E11.87797
G1 X146.494 Y105.663 E11.90885
G1 X147.578 Y105.153 E11.94740
G1 X148.332 Y104.919 E11.97277
G1 X149.121 Y104.830 E11.99830
G1 X228.012 Y104.796 E14.53515
G1 X229.688 Y104.971 E14.58934
G1 X231.256 Y105.468 E14.64222
G1 X232.734 Y106.296 E14.69672
G1 X233.819 Y107.224 E14.74260
G1 X234.372 Y107.841 E14.76927
G1 X235.278 Y109.217 E14.82225
G1 X235.843 Y110.577 E14.86959
G1 X236.177 Y112.269 E14.92506
G1 X236.186 Y177.555 E17.02441
G1 X235.861 Y179.361 E17.08343
G1 X235.309 Y180.714 E17.13043
G1 X234.892 Y181.443 E17.15742
G1 X233.877 Y182.722 E17.20993
G1 X232.754 Y183.690 E17.25760
G1 X231.278 Y184.523 E17.31210
G1 X229.702 Y185.027 E17.36531
G1 X228.042 Y185.203 E17.41900
G1 X149.416 Y185.203 E19.94732
G1 X147.993 Y184.975 E19.99366
G1 X147.195 Y184.714 E20.02066
G1 X146.461 Y184.296 E20.04781
G1 X145.347 Y183.401 E20.09377
G1 X144.816 Y182.713 E20.12173
G1 X144.160 Y181.481 E20.16659
G1 X143.936 Y180.667 E20.19374
G1 X143.812 Y179.434 E20.23360
G1 X143.812 Y110.323 E22.45595
G1 X143.937 Y109.325 E22.48829
G1 X144.374 Y108.047 E22.53173
; PURGING FINISHED
G1 F3840
G1 X144.875 Y107.189 E21.79413
G1 X145.066 Y106.976 E21.58173
G1 E21.53173 F3000.00000
G92 E0
G1 X188.442 Y174.034 F4800.000
G1 E1.00000 F3000.00000
G1 F900
G1 X189.130 Y173.727 E1.02423
G1 X189.884 Y173.727 E1.04846
G1 X190.572 Y174.034 E1.07270
G1 X191.076 Y174.594 E1.09693
G1 X191.309 Y175.311 E1.12117
G1 X191.231 Y176.060 E1.14540
G1 X190.854 Y176.713 E1.16963
G1 X190.244 Y177.156 E1.19387
G1 X189.507 Y177.312 E1.21810
G1 X188.770 Y177.156 E1.24234
G1 X188.160 Y176.713 E1.26658
G1 X187.783 Y176.060 E1.29080
G1 X187.704 Y175.311 E1.31504
G1 X187.937 Y174.594 E1.33927
G1 X188.401 Y174.078 E1.36158
G1 X188.686 Y174.370 F4800.000
G1 F900
G1 X189.217 Y174.134 E1.38025
G1 X189.797 Y174.134 E1.39892
G1 X190.328 Y174.370 E1.41758
G1 X190.716 Y174.802 E1.43626
G1 X190.895 Y175.354 E1.45492
G1 X190.835 Y175.932 E1.47360
G1 X190.544 Y176.434 E1.49226
G1 X190.075 Y176.776 E1.51093
G1 X189.507 Y176.896 E1.52960
G1 X188.939 Y176.776 E1.54827
G1 X188.469 Y176.434 E1.56694
G1 X188.179 Y175.932 E1.58561
G1 X188.118 Y175.354 E1.60428
G1 X188.298 Y174.802 E1.62295
G1 X188.646 Y174.415 E1.63969
G1 X188.931 Y174.707 F4800.000
G1 F900
G1 X189.303 Y174.541 E1.65279
G1 X189.711 Y174.541 E1.66590
G1 X190.083 Y174.707 E1.67900
G1 X190.356 Y175.010 E1.69210
G1 X190.482 Y175.398 E1.70521
G1 X190.439 Y175.803 E1.71831
G1 X190.235 Y176.156 E1.73142
G1 X189.905 Y176.395 E1.74452
G1 X189.507 Y176.480 E1.75763
G1 X189.108 Y176.395 E1.77073
G1 X188.779 Y176.156 E1.78384
G1 X188.575 Y175.803 E1.79694
G1 X188.532 Y175.398 E1.81004
G1 X188.658 Y175.010 E1.82315
G1 X188.891 Y174.752 E1.83432
G1 X188.889 Y174.309 F4800.000
G1 F3840
G1 X189.303 Y174.541 E1.49072
G1 X189.711 Y174.541 E1.18829
G1 X190.083 Y174.707 E0.88585
G1 X190.084 Y174.709 E0.88432
G1 E0.83432 F3000.00000
G92 E0
G1 X195.580 Y173.789 F4800.000
G1 E1.00000 F3000.00000
G1 F900
G1 X195.455 Y173.000 E1.02567
G1 X195.580 Y172.211 E1.05135
G1 X195.942 Y171.500 E1.07703
G1 X196.507 Y170.935 E1.10270
G1 X197.218 Y170.573 E1.12838
G1 X197.925 Y170.461 E1.15139
G1 X218.089 Y170.461 E1.79978
G1 X218.795 Y170.573 E1.82279
G1 X219.507 Y170.935 E1.84847
G1 X220.071 Y171.500 E1.87414
G1 X220.434 Y172.211 E1.89982
G1 X220.559 Y173.000 E1.92550
G1 X220.434 Y173.789 E1.95117
G1 X220.071 Y174.500 E1.97685
G1 X219.507 Y175.065 E2.00252
G1 X218.795 Y175.427 E2.02820
G1 X218.089 Y175.539 E2.05122
G1 X197.925 Y175.539 E2.69960
G1 X197.218 Y175.427 E2.72262
G1 X196.507 Y175.065 E2.74829
G1 X195.942 Y174.500 E2.77397
G1 X195.607 Y173.842 E2.79772
G1 X195.972 Y173.661 F4800.000
G1 F900
G1 X195.867 Y173.000 E2.81924
G1 X195.972 Y172.339 E2.84077
G1 X196.276 Y171.742 E2.86230
G1 X196.749 Y171.269 E2.88383
G1 X197.346 Y170.965 E2.90536
G1 X197.957 Y170.868 E2.92527
G1 X218.057 Y170.868 E3.57160
G1 X218.668 Y170.965 E3.59151
G1 X219.265 Y171.269 E3.61304
G1 X219.738 Y171.742 E3.63457
G1 X220.042 Y172.339 E3.65610
G1 X220.147 Y173.000 E3.67763
G1 X220.042 Y173.661 E3.69916
G1 X219.738 Y174.258 E3.72069
G1 X219.265 Y174.731 E3.74221
G1 X218.668 Y175.035 E3.76375
G1 X218.057 Y175.132 E3.78366
G1 X197.957 Y175.132 E4.42998
G1 X197.346 Y175.035 E4.44989
G1 X196.749 Y174.731 E4.47142
G1 X196.276 Y174.258 E4.49295
G1 X195.999 Y173.715 E4.51255
G1 X196.364 Y173.534 F4800.000
G1 F900
G1 X196.279 Y173.000 E4.52993
G1 X196.364 Y172.466 E4.54732
G1 X196.609 Y171.984 E4.56470
G1 X196.991 Y171.602 E4.58208
G1 X197.473 Y171.357 E4.59947
G1 X197.989 Y171.275 E4.61627
G1 X218.025 Y171.275 E5.26054
G1 X218.541 Y171.357 E5.27734
G1 X219.022 Y171.602 E5.29473
G1 X219.405 Y171.984 E5.31211
G1 X219.650 Y172.466 E5.32950
G1 X219.735 Y173.000 E5.34688
G1 X219.650 Y173.534 E5.36426
G1 X219.405 Y174.016 E5.38164
G1 X219.022 Y174.398 E5.39903
G1 X218.541 Y174.643 E5.41641
G1 X218.025 Y174.725 E5.43322
G1 X197.989 Y174.725 E6.07748
G1 X197.473 Y174.643 E6.09429
G1 X196.991 Y174.398 E6.11167
G1 X196.609 Y174.016 E6.12905
G1 X196.391 Y173.587 E6.14451
G1 X195.972 Y173.451 F4800.000
G1 F3840
G1 X196.279 Y173.000 E5.70076
G1 X196.364 Y172.466 E5.29957
G1 X196.428 Y172.340 E5.19451
G1 E5.14451 F3000.00000
G92 E0
G1 X197.218 Y168.427 F4800.000
G1 E1.00000 F3000.00000
G1 F900
G1 X196.507 Y168.065 E1.02568
G1 X195.942 Y167.500 E1.05135
G1 X195.580 Y166.789 E1.07703
G1 X195.455 Y166.000 E1.10270
G1 X195.580 Y165.211 E1.12838
G1 X195.942 Y164.500 E1.15406
G1 X196.507 Y163.935 E1.17973
G1 X197.218 Y163.573 E1.20541
G1 X197.925 Y163.461 E1.22842
G1 X218.089 Y163.461 E1.87681
G1 X218.795 Y163.573 E1.89982
G1 X219.507 Y163.935 E1.92550
G1 X220.071 Y164.500 E1.95117
G1 X220.434 Y165.211 E1.97685
G1 X220.559 Y166.000 E2.00253
G1 X220.434 Y166.789 E2.02820
G1 X220.071 Y167.500 E2.05388
G1 X219.507 Y168.065 E2.07955
G1 X218.795 Y168.427 E2.10523
G1 X218.089 Y168.539 E2.12824
G1 X197.925 Y168.539 E2.77663
G1 X197.277 Y168.437 E2.79772
G1 X197.346 Y168.035 F4800.000
G1 F900
G1 X196.749 Y167.731 E2.81925
G1 X196.276 Y167.258 E2.84077
G1 X195.972 Y166.661 E2.86231
G1 X195.867 Y166.000 E2.88383
G1 X195.972 Y165.339 E2.90536
G1 X196.276 Y164.742 E2.92689
G1 X196.749 Y164.269 E2.94842
G1 X197.346 Y163.965 E2.96995
G1 X197.957 Y163.868 E2.98986
G1 X218.057 Y163.868 E3.63619
G1 X218.668 Y163.965 E3.65610
G1 X219.265 Y164.269 E3.67763
G1 X219.738 Y164.742 E3.69916
G1 X220.042 Y165.339 E3.72069
G1 X220.147 Y166.000 E3.74222
G1 X220.042 Y166.661 E3.76375
G1 X219.738 Y167.258 E3.78528
G1 X219.265 Y167.731 E3.80680
G1 X218.668 Y168.035 E3.82834
G1 X218.057 Y168.132 E3.84824
G1 X197.957 Y168.132 E4.49457
G1 X197.405 Y168.045 E4.51255
G1 X197.473 Y167.643 F4800.000
G1 F900
G1 X196.991 Y167.398 E4.52994
G1 X196.609 Y167.016 E4.54732
G1 X196.364 Y166.534 E4.56470
G1 X196.279 Y166.000 E4.58208
G1 X196.364 Y165.466 E4.59947
G1 X196.609 Y164.984 E4.61685
G1 X196.991 Y164.602 E4.63423
G1 X197.473 Y164.357 E4.65162
G1 X197.989 Y164.275 E4.66842
G1 X218.025 Y164.275 E5.31269
G1 X218.541 Y164.357 E5.32949
G1 X219.022 Y164.602 E5.34688
G1 X219.405 Y164.984 E5.36426
G1 X219.650 Y165.466 E5.38164
G1 X219.735 Y166.000 E5.39903
G1 X219.650 Y166.534 E5.41641
G1 X219.405 Y167.016 E5.43379
G1 X219.022 Y167.398 E5.45117
G1 X218.541 Y167.643 E5.46856
G1 X218.025 Y167.725 E5.48537
G1 X197.989 Y167.725 E6.12963
G1 X197.532 Y167.653 E6.14451
G1 X197.175 Y167.910 F4800.000
G1 F3840
G1 X196.991 Y167.398 E5.70073
G1 X196.609 Y167.016 E5.29955
G1 X196.545 Y166.890 E5.19451
G1 E5.14451 F3000.00000
G92 E0
G1 X197.218 Y161.427 F4800.000
G1 E1.00000 F3000.00000
G1 F900
G1 X196.507 Y161.065 E1.02568
G1 X195.942 Y160.500 E1.05135
G1 X195.580 Y159.789 E1.07703
G1 X195.455 Y159.000 E1.10270
G1 X195.580 Y158.211 E1.12838
G1 X195.942 Y157.500 E1.15406
G1 X196.507 Y156.935 E1.17973
G1 X197.218 Y156.573 E1.20541
G1 X197.925 Y156.461 E1.22842
G1 X218.089 Y156.461 E1.87681
G1 X218.795 Y156.573 E1.89982
G1 X219.507 Y156.935 E1.92550
G1 X220.071 Y157.500 E1.95117
G1 X220.434 Y158.211 E1.97685
G1 X220.559 Y159.000 E2.00253
G1 X220.434 Y159.789 E2.02820
G1 X220.071 Y160.500 E2.05388
G1 X219.507 Y161.065 E2.07955
G1 X218.795 Y161.427 E2.10523
G1 X218.089 Y161.539 E2.12824
G1 X197.925 Y161.539 E2.77663
G1 X197.277 Y161.437 E2.79772
G1 X197.346 Y161.035 F4800.000
G1 F900
G1 X196.749 Y160.731 E2.81925
G1 X196.276 Y160.258 E2.84077
G1 X195.972 Y159.661 E2.86231
G1 X195.867 Y159.000 E2.88383
G1 X195.972 Y158.339 E2.90536
G1 X196.276 Y157.742 E2.92689
G1 X196.749 Y157.269 E2.94842
G1 X197.346 Y156.965 E2.96995
G1 X197.957 Y156.868 E2.98986
G1 X218.057 Y156.868 E3.63619
G1 X218.668 Y156.965 E3.65610
G1 X219.265 Y157.269 E3.67763
G1 X219.738 Y157.742 E3.69916
G1 X220.042 Y158.339 E3.72069
G1 X220.147 Y159.000 E3.74222
G1 X220.042 Y159.661 E3.76375
G1 X219.738 Y160.258 E3.78528
G1 X219.265 Y160.731 E3.80680
G1 X218.668 Y161.035 E3.82834
G1 X218.057 Y161.132 E3.84825
G1 X197.957 Y161.132 E4.49457
G1 X197.405 Y161.045 E4.51255
G1 X197.473 Y160.643 F4800.000
G1 F900
G1 X196.991 Y160.398 E4.52994
G1 X196.609 Y160.016 E4.54732
G1 X196.364 Y159.534 E4.56470
G1 X196.279 Y159.000 E4.58208
G1 X196.364 Y158.466 E4.59947
G1 X196.609 Y157.984 E4.61685
G1 X196.991 Y157.602 E4.63423
G1 X197.473 Y157.357 E4.65162
G1 X197.989 Y157.275 E4.66842
G1 X218.025 Y157.275 E5.31269
G1 X218.541 Y157.357 E5.32949
G1 X219.022 Y157.602 E5.34688
G1 X219.405 Y157.984 E5.36426
G1 X219.650 Y158.466 E5.38165
G1 X219.735 Y159.000 E5.39903
G1 X219.650 Y159.534 E5.41641
G1 X219.405 Y160.016 E5.43379
G1 X219.022 Y160.398 E5.45118
G1 X218.541 Y160.643 E5.46856
G1 X218.025 Y160.725 E5.48537
G1 X197.989 Y160.725 E6.12963
G1 X197.532 Y160.653 E6.14451
G1 X197.175 Y160.910 F4800.000
G1 F3840
G1 X196.991 Y160.398 E5.70073
G1 X196.609 Y160.016 E5.29955
G1 X196.545 Y159.890 E5.19451
G1 E5.14451 F3000.00000
G92 E0
G1 X197.218 Y154.427 F4800.000
G1 E1.00000 F3000.00000
G1 F900
G1 X196.507 Y154.065 E1.02568
G1 X195.942 Y153.500 E1.05135
G1 X195.580 Y152.789 E1.07703
G1 X195.455 Y152.000 E1.10270
G1 X195.580 Y151.211 E1.12838
G1 X195.942 Y150.500 E1.15406
G1 X196.507 Y149.935 E1.17973
G1 X197.218 Y149.573 E1.20541
G1 X197.925 Y149.461 E1.22842
G1 X218.089 Y149.461 E1.87681
G1 X218.795 Y149.573 E1.89982
G1 X219.507 Y149.935 E1.92550
G1 X220.071 Y150.500 E1.95117
G1 X220.434 Y151.211 E1.97685
G1 X220.559 Y152.000 E2.00253
G1 X220.434 Y152.789 E2.02820
G1 X220.071 Y153.500 E2.05388
G1 X219.507 Y154.065 E2.07955
G1 X218.795 Y154.427 E2.10523
G1 X218.089 Y154.539 E2.12824
G1 X197.925 Y154.539 E2.77663
G1 X197.277 Y154.437 E2.79772
G1 X197.346 Y154.035 F4800.000
G1 F900
G1 X196.749 Y153.731 E2.81925
G1 X196.276 Y153.258 E2.84078
G1 X195.972 Y152.661 E2.86231
G1 X195.867 Y152.000 E2.88383
G1 X195.972 Y151.339 E2.90536
G1 X196.276 Y150.742 E2.92689
G1 X196.749 Y150.269 E2.94842
G1 X197.346 Y149.965 E2.96995
G1 X197.957 Y149.868 E2.98986
G1 X218.057 Y149.868 E3.63619
G1 X218.668 Y149.965 E3.65610
G1 X219.265 Y150.269 E3.67763
G1 X219.738 Y150.742 E3.69916
G1 X220.042 Y151.339 E3.72069
G1 X220.147 Y152.000 E3.74222
G1 X220.042 Y152.661 E3.76375
G1 X219.738 Y153.258 E3.78528
G1 X219.265 Y153.731 E3.80681
G1 X218.668 Y154.035 E3.82834
G1 X218.057 Y154.132 E3.84825
G1 X197.957 Y154.132 E4.49457
G1 X197.405 Y154.045 E4.51255
G1 X197.473 Y153.643 F4800.000
G1 F900
G1 X196.991 Y153.398 E4.52994
G1 X196.609 Y153.016 E4.54732
G1 X196.364 Y152.534 E4.56470
G1 X196.279 Y152.000 E4.58208
G1 X196.364 Y151.466 E4.59947
G1 X196.609 Y150.984 E4.61685
G1 X196.991 Y150.602 E4.63423
G1 X197.473 Y150.357 E4.65162
G1 X197.989 Y150.275 E4.66842
G1 X218.025 Y150.275 E5.31269
G1 X218.541 Y150.357 E5.32949
G1 X219.022 Y150.602 E5.34688
G1 X219.405 Y150.984 E5.36426
G1 X219.650 Y151.466 E5.38164
G1 X219.735 Y152.000 E5.39903
G1 X219.650 Y152.534 E5.41641
G1 X219.405 Y153.016 E5.43379
G1 X219.022 Y153.398 E5.45118
G1 X218.541 Y153.643 E5.46856
G1 X218.025 Y153.725 E5.48537
G1 X197.989 Y153.725 E6.12963
G1 X197.532 Y153.653 E6.14451
G1 X197.175 Y153.910 F4800.000
G1 F3840
G1 X196.991 Y153.398 E5.70074
G1 X196.609 Y153.016 E5.29953
G1 X196.545 Y152.890 E5.19451
G1 E5.14451 F3000.00000
G92 E0
G1 X197.218 Y147.427 F4800.000
G1 E1.00000 F3000.00000
G1 F900
G1 X196.507 Y147.065 E1.02568
G1 X195.942 Y146.500 E1.05135
G1 X195.580 Y145.789 E1.07703
G1 X195.455 Y145.000 E1.10270
G1 X195.580 Y144.211 E1.12838
G1 X195.942 Y143.500 E1.15406
G1 X196.507 Y142.935 E1.17973
G1 X197.218 Y142.573 E1.20541
G1 X197.925 Y142.461 E1.22842
G1 X218.089 Y142.461 E1.87681
G1 X218.795 Y142.573 E1.89982
G1 X219.507 Y142.935 E1.92550
G1 X220.071 Y143.500 E1.95117
G1 X220.434 Y144.211 E1.97685
G1 X220.559 Y145.000 E2.00253
G1 X220.434 Y145.789 E2.02820
G1 X220.071 Y146.500 E2.05388
G1 X219.507 Y147.065 E2.07955
G1 X218.795 Y147.427 E2.10523
G1 X218.089 Y147.539 E2.12824
G1 X197.925 Y147.539 E2.77663
G1 X197.277 Y147.437 E2.79772
G1 X197.346 Y147.035 F4800.000
G1 F900
G1 X196.749 Y146.731 E2.81925
G1 X196.276 Y146.258 E2.84077
G1 X195.972 Y145.661 E2.86230
G1 X195.867 Y145.000 E2.88383
G1 X195.972 Y144.339 E2.90536
G1 X196.276 Y143.742 E2.92689
G1 X196.749 Y143.269 E2.94842
G1 X197.346 Y142.965 E2.96995
G1 X197.957 Y142.868 E2.98986
G1 X218.057 Y142.868 E3.63619
G1 X218.668 Y142.965 E3.65610
G1 X219.265 Y143.269 E3.67763
G1 X219.738 Y143.742 E3.69916
G1 X220.042 Y144.339 E3.72069
G1 X220.147 Y145.000 E3.74222
G1 X220.042 Y145.661 E3.76375
G1 X219.738 Y146.258 E3.78528
G1 X219.265 Y146.731 E3.80680
G1 X218.668 Y147.035 E3.82834
G1 X218.057 Y147.132 E3.84824
G1 X197.957 Y147.132 E4.49457
G1 X197.405 Y147.045 E4.51255
G1 X197.473 Y146.643 F4800.000
G1 F900
G1 X196.991 Y146.398 E4.52993
G1 X196.609 Y146.016 E4.54732
G1 X196.364 Y145.534 E4.56470
G1 X196.279 Y145.000 E4.58208
G1 X196.364 Y144.466 E4.59947
G1 X196.609 Y143.984 E4.61685
G1 X196.991 Y143.602 E4.63423
G1 X197.473 Y143.357 E4.65162
G1 X197.989 Y143.275 E4.66842
G1 X218.025 Y143.275 E5.31269
G1 X218.541 Y143.357 E5.32949
G1 X219.022 Y143.602 E5.34688
G1 X219.405 Y143.984 E5.36426
G1 X219.650 Y144.466 E5.38164
G1 X219.735 Y145.000 E5.39903
G1 X219.650 Y145.534 E5.41641
G1 X219.405 Y146.016 E5.43379
G1 X219.022 Y146.398 E5.45117
G1 X218.541 Y146.643 E5.46856
G1 X218.025 Y146.725 E5.48536
G1 X197.989 Y146.725 E6.12963
G1 X197.532 Y146.653 E6.14451
G1 X197.175 Y146.910 F4800.000
G1 F3840
