; generated by Slic3r Prusa Edition 1.41.0-beta+win64 on 2018-09-15 at 15:12:32

; 

; external perimeters extrusion width = 0.45mm
; perimeters extrusion width = 0.45mm
; infill extrusion width = 0.45mm
; solid infill extrusion width = 0.45mm
; top infill extrusion width = 0.40mm

M107
M80 ; turn on PSU
M190 S50
M104 S190 ; start E heating
M17; enable motors
G28 X Y ; Z ; Home
M109 S190
G91
G1 E5 F200
G90
; Filament gcode
G21 ; set units to millimeters
G90 ; use absolute coordinates
M82 ; use absolute distances for extrusion
G92 E0
G1 Z0.200 F4800.000
G1 E-1.00000 F3000.00000
G92 E0
G1 X144.575 Y111.882 F4800.000
G1 E1.00000 F3000.00000
G1 F900
G1 X145.531 Y110.856 E1.04510
G1 X146.285 Y110.299 E1.07524
G1 X147.403 Y109.749 E1.11531
G1 X148.199 Y109.525 E1.14189
G1 X149.419 Y109.374 E1.18141
G1 X221.040 Y109.373 E3.48448
G1 X222.796 Y109.555 E3.54125
G1 X224.431 Y110.072 E3.59641
G1 X225.978 Y110.935 E3.65337
G1 X227.106 Y111.893 E3.70095
G1 X227.716 Y112.569 E3.73024
G1 X228.662 Y114.004 E3.78551
G1 X229.257 Y115.429 E3.83516
G1 X229.605 Y117.162 E3.89201
G1 X229.619 Y172.626 E5.67552
G1 X229.277 Y174.500 E5.73678
G1 X228.689 Y175.940 E5.78681
G1 X227.731 Y177.412 E5.84328
G1 X227.104 Y178.109 E5.87342
G1 X225.983 Y179.062 E5.92074
G1 X224.434 Y179.927 E5.97778
G1 X222.804 Y180.443 E6.03277
G1 X221.056 Y180.627 E6.08930
G1 X149.384 Y180.626 E8.39401
G1 X148.045 Y180.444 E8.43745
G1 X147.078 Y180.112 E8.47031
G1 X145.896 Y179.443 E8.51401
G1 X144.884 Y178.497 E8.55855
G1 X144.330 Y177.747 E8.58852
G1 X143.778 Y176.628 E8.62866
G1 X143.553 Y175.832 E8.65524
G1 X143.402 Y174.625 E8.69436
G1 X143.401 Y115.441 E10.59752
G1 X143.574 Y114.066 E10.64209
G1 X143.902 Y113.081 E10.67546
G1 X144.545 Y111.934 E10.71775
G1 X144.899 Y112.132 F4800.000
G1 F900
G1 X145.812 Y111.150 E10.76087
G1 X146.501 Y110.645 E10.78835
G1 X147.559 Y110.126 E10.82625
G1 X148.285 Y109.923 E10.85049
G1 X149.434 Y109.780 E10.88772
G1 X221.039 Y109.780 E13.19029
G1 X222.713 Y109.954 E13.24439
G1 X224.280 Y110.450 E13.29726
G1 X225.757 Y111.277 E13.35169
G1 X226.833 Y112.195 E13.39716
G1 X227.391 Y112.815 E13.42399
G1 X228.300 Y114.189 E13.47697
G1 X228.867 Y115.546 E13.52424
G1 X229.201 Y117.207 E13.57874
G1 X229.213 Y172.597 E15.35988
G1 X228.885 Y174.392 E15.41857
G1 X228.320 Y175.768 E15.46639
G1 X227.399 Y177.176 E15.52050
G1 X226.823 Y177.814 E15.54814
G1 X225.756 Y178.724 E15.59321
G1 X224.277 Y179.551 E15.64771
G1 X222.720 Y180.045 E15.70026
G1 X221.054 Y180.220 E15.75411
G1 X149.400 Y180.219 E18.05826
G1 X148.141 Y180.048 E18.09909
G1 X147.247 Y179.742 E18.12949
G1 X146.131 Y179.111 E18.17070
G1 X145.175 Y178.213 E18.21288
G1 X144.670 Y177.523 E18.24036
G1 X144.154 Y176.472 E18.27802
G1 X143.951 Y175.746 E18.30225
G1 X143.808 Y174.610 E18.33909
G1 X143.808 Y115.443 E20.24168
G1 X143.972 Y114.150 E20.28359
G1 X144.275 Y113.244 E20.31431
G1 X144.869 Y112.185 E20.35337
; PURGING FINISHED
G1 F3840
G1 X145.731 Y111.239 E19.40337
G1 E19.35337 F3000.00000
G92 E0
G1 X197.805 Y167.340 F4800.000
G1 E1.00000 F3000.00000
G1 F900
G1 X198.377 Y167.048 E1.02065
G1 X198.929 Y166.961 E1.03863
G1 X215.093 Y166.961 E1.55839
G1 X215.645 Y167.048 E1.57638
G1 X216.217 Y167.340 E1.59703
G1 X216.671 Y167.794 E1.61767
G1 X216.963 Y168.366 E1.63832
G1 X217.063 Y169.000 E1.65896
G1 X216.960 Y169.649 E1.68009
G1 X216.638 Y170.239 E1.70170
G1 X216.217 Y170.660 E1.72085
G1 X215.645 Y170.952 E1.74150
G1 X215.093 Y171.039 E1.75949
G1 X198.929 Y171.039 E2.27925
G1 X198.377 Y170.952 E2.29723
G1 X197.805 Y170.660 E2.31788
G1 X197.351 Y170.206 E2.33852
G1 X197.059 Y169.634 E2.35917
G1 X196.959 Y169.000 E2.37981
G1 X197.059 Y168.366 E2.40046
G1 X197.351 Y167.794 E2.42111
G1 X197.762 Y167.382 E2.43982
G1 X198.047 Y167.673 F4800.000
G1 F900
G1 X198.504 Y167.440 E2.45632
G1 X198.961 Y167.368 E2.47120
G1 X215.061 Y167.368 E2.98890
G1 X215.518 Y167.440 E3.00378
G1 X215.975 Y167.673 E3.02028
G1 X216.338 Y168.036 E3.03678
G1 X216.571 Y168.493 E3.05328
G1 X216.651 Y169.000 E3.06978
G1 X216.569 Y169.516 E3.08657
G1 X216.309 Y169.993 E3.10404
G1 X215.975 Y170.327 E3.11923
G1 X215.518 Y170.560 E3.13573
G1 X215.061 Y170.632 E3.15062
G1 X198.961 Y170.632 E3.66831
G1 X198.504 Y170.560 E3.68319
G1 X198.047 Y170.327 E3.69970
G1 X197.684 Y169.964 E3.71619
G1 X197.451 Y169.507 E3.73269
G1 X197.371 Y169.000 E3.74919
G1 X197.451 Y168.493 E3.76569
G1 X197.684 Y168.036 E3.78219
G1 X198.005 Y167.716 E3.79676
G1 X198.289 Y168.007 F4800.000
G1 F900
G1 X198.632 Y167.832 E3.80911
G1 X198.993 Y167.775 E3.82089
G1 X215.029 Y167.775 E4.33653
G1 X215.390 Y167.832 E4.34830
G1 X215.733 Y168.007 E4.36066
G1 X216.004 Y168.278 E4.37301
G1 X216.179 Y168.621 E4.38536
G1 X216.239 Y169.000 E4.39772
G1 X216.178 Y169.383 E4.41017
G1 X215.980 Y169.746 E4.42349
G1 X215.733 Y169.993 E4.43473
G1 X215.390 Y170.168 E4.44708
G1 X215.029 Y170.225 E4.45886
G1 X198.993 Y170.225 E4.97450
G1 X198.632 Y170.168 E4.98628
G1 X198.289 Y169.993 E4.99863
G1 X198.018 Y169.722 E5.01098
G1 X197.843 Y169.379 E5.02334
G1 X197.783 Y169.000 E5.03569
G1 X197.843 Y168.621 E5.04804
G1 X198.018 Y168.278 E5.06039
G1 X198.247 Y168.049 E5.07081
G1 X198.249 Y167.625 F4800.000
G1 F3840
G1 X198.632 Y167.832 E4.74304
G1 X198.993 Y167.775 E4.47123
G1 X199.465 Y167.775 E4.12081
G1 E4.07081 F3000.00000
G92 E0
G1 X198.377 Y164.952 F4800.000
G1 E1.00000 F3000.00000
G1 F900
G1 X197.805 Y164.660 E1.02065
G1 X197.351 Y164.206 E1.04129
G1 X197.059 Y163.634 E1.06194
G1 X196.959 Y163.000 E1.08258
G1 X197.059 Y162.366 E1.10323
G1 X197.351 Y161.794 E1.12388
G1 X197.805 Y161.340 E1.14452
G1 X198.377 Y161.048 E1.16517
G1 X198.929 Y160.961 E1.18315
G1 X215.093 Y160.961 E1.70291
G1 X215.645 Y161.048 E1.72089
G1 X216.217 Y161.340 E1.74154
G1 X216.671 Y161.794 E1.76218
G1 X216.963 Y162.366 E1.78283
G1 X217.063 Y163.000 E1.80348
G1 X216.960 Y163.649 E1.82461
G1 X216.638 Y164.239 E1.84622
G1 X216.217 Y164.660 E1.86537
G1 X215.645 Y164.952 E1.88602
G1 X215.093 Y165.039 E1.90401
G1 X198.929 Y165.039 E2.42376
G1 X198.436 Y164.961 E2.43982
G1 X198.504 Y164.560 F4800.000
G1 F900
G1 X198.047 Y164.327 E2.45632
G1 X197.684 Y163.964 E2.47282
G1 X197.451 Y163.507 E2.48932
G1 X197.371 Y163.000 E2.50582
G1 X197.451 Y162.493 E2.52231
G1 X197.684 Y162.036 E2.53882
G1 X198.047 Y161.673 E2.55531
G1 X198.504 Y161.440 E2.57181
G1 X198.961 Y161.368 E2.58669
G1 X215.061 Y161.368 E3.10439
G1 X215.518 Y161.440 E3.11927
G1 X215.975 Y161.673 E3.13578
G1 X216.338 Y162.036 E3.15227
G1 X216.571 Y162.493 E3.16877
G1 X216.651 Y163.000 E3.18527
G1 X216.569 Y163.516 E3.20206
G1 X216.309 Y163.993 E3.21953
G1 X215.975 Y164.327 E3.23473
G1 X215.518 Y164.560 E3.25123
G1 X215.061 Y164.632 E3.26611
G1 X198.961 Y164.632 E3.78381
G1 X198.563 Y164.569 E3.79676
G1 X198.632 Y164.168 F4800.000
G1 F900
G1 X198.289 Y163.993 E3.80911
G1 X198.018 Y163.722 E3.82146
G1 X197.843 Y163.379 E3.83382
G1 X197.783 Y163.000 E3.84617
G1 X197.843 Y162.621 E3.85852
G1 X198.018 Y162.278 E3.87087
G1 X198.289 Y162.007 E3.88323
G1 X198.632 Y161.832 E3.89558
G1 X198.993 Y161.775 E3.90736
G1 X215.029 Y161.775 E4.42300
G1 X215.390 Y161.832 E4.43477
G1 X215.733 Y162.007 E4.44713
G1 X216.004 Y162.278 E4.45948
G1 X216.179 Y162.621 E4.47183
G1 X216.239 Y163.000 E4.48418
G1 X216.178 Y163.383 E4.49664
G1 X215.980 Y163.746 E4.50996
G1 X215.733 Y163.993 E4.52120
G1 X215.390 Y164.168 E4.53355
G1 X215.029 Y164.225 E4.54533
G1 X198.993 Y164.225 E5.06097
G1 X198.691 Y164.177 E5.07081
G1 X198.346 Y164.424 F4800.000
G1 F3840
G1 X198.289 Y163.993 E4.74304
G1 X198.018 Y163.722 E4.45797
G1 X197.843 Y163.379 E4.17284
G1 X197.832 Y163.310 E4.12081
G1 E4.07081 F3000.00000
G92 E0
G1 X198.377 Y158.952 F4800.000
G1 E1.00000 F3000.00000
G1 F900
G1 X197.805 Y158.660 E1.02065
G1 X197.351 Y158.206 E1.04129
G1 X197.059 Y157.634 E1.06194
G1 X196.959 Y157.000 E1.08258
G1 X197.059 Y156.366 E1.10323
G1 X197.351 Y155.794 E1.12388
G1 X197.805 Y155.340 E1.14452
G1 X198.377 Y155.048 E1.16517
G1 X198.929 Y154.961 E1.18315
G1 X215.093 Y154.961 E1.70291
G1 X215.645 Y155.048 E1.72089
G1 X216.217 Y155.340 E1.74154
G1 X216.671 Y155.794 E1.76218
G1 X216.963 Y156.366 E1.78283
G1 X217.063 Y157.000 E1.80348
G1 X216.960 Y157.649 E1.82461
G1 X216.638 Y158.239 E1.84622
G1 X216.217 Y158.660 E1.86537
G1 X215.645 Y158.952 E1.88602
G1 X215.093 Y159.039 E1.90401
G1 X198.929 Y159.039 E2.42376
G1 X198.436 Y158.961 E2.43982
G1 X198.504 Y158.560 F4800.000
G1 F900
G1 X198.047 Y158.327 E2.45632
G1 X197.684 Y157.964 E2.47282
G1 X197.451 Y157.507 E2.48932
G1 X197.371 Y157.000 E2.50582
G1 X197.451 Y156.493 E2.52231
G1 X197.684 Y156.036 E2.53882
G1 X198.047 Y155.673 E2.55531
G1 X198.504 Y155.440 E2.57181
G1 X198.961 Y155.368 E2.58669
G1 X215.061 Y155.368 E3.10439
G1 X215.518 Y155.440 E3.11927
G1 X215.975 Y155.673 E3.13578
G1 X216.338 Y156.036 E3.15227
G1 X216.571 Y156.493 E3.16877
G1 X216.651 Y157.000 E3.18527
G1 X216.569 Y157.516 E3.20206
G1 X216.309 Y157.993 E3.21953
G1 X215.975 Y158.327 E3.23473
G1 X215.518 Y158.560 E3.25123
G1 X215.061 Y158.632 E3.26611
G1 X198.961 Y158.632 E3.78381
G1 X198.563 Y158.569 E3.79676
G1 X198.632 Y158.168 F4800.000
G1 F900
G1 X198.289 Y157.993 E3.80911
G1 X198.018 Y157.722 E3.82146
G1 X197.843 Y157.379 E3.83382
G1 X197.783 Y157.000 E3.84617
G1 X197.843 Y156.621 E3.85852
G1 X198.018 Y156.278 E3.87087
G1 X198.289 Y156.007 E3.88323
G1 X198.632 Y155.832 E3.89558
G1 X198.993 Y155.775 E3.90736
G1 X215.029 Y155.775 E4.42300
G1 X215.390 Y155.832 E4.43477
G1 X215.733 Y156.007 E4.44713
G1 X216.004 Y156.278 E4.45948
G1 X216.179 Y156.621 E4.47183
G1 X216.239 Y157.000 E4.48418
G1 X216.178 Y157.383 E4.49664
G1 X215.980 Y157.746 E4.50996
G1 X215.733 Y157.993 E4.52120
G1 X215.390 Y158.168 E4.53355
G1 X215.029 Y158.225 E4.54533
G1 X198.993 Y158.225 E5.06097
G1 X198.691 Y158.177 E5.07081
G1 X198.346 Y158.424 F4800.000
G1 F3840
G1 X198.289 Y157.993 E4.74304
G1 X198.018 Y157.722 E4.45797
G1 X197.843 Y157.379 E4.17284
G1 X197.832 Y157.310 E4.12081
G1 E4.07081 F3000.00000
G92 E0
G1 X198.362 Y152.949 F4800.000
G1 E1.00000 F3000.00000
G1 F900
G1 X197.772 Y152.627 E1.02161
G1 X197.351 Y152.206 E1.04077
G1 X197.059 Y151.634 E1.06141
G1 X196.959 Y151.000 E1.08206
G1 X197.059 Y150.366 E1.10270
G1 X197.351 Y149.794 E1.12335
G1 X197.805 Y149.340 E1.14400
G1 X198.377 Y149.048 E1.16464
G1 X198.929 Y148.961 E1.18262
G1 X215.093 Y148.961 E1.70239
G1 X215.645 Y149.048 E1.72037
G1 X216.217 Y149.340 E1.74102
G1 X216.671 Y149.794 E1.76166
G1 X216.963 Y150.366 E1.78231
G1 X217.063 Y151.000 E1.80295
G1 X216.963 Y151.634 E1.82360
G1 X216.671 Y152.206 E1.84425
G1 X216.217 Y152.660 E1.86489
G1 X215.645 Y152.952 E1.88554
G1 X215.093 Y153.039 E1.90352
G1 X198.929 Y153.039 E2.42328
G1 X198.421 Y152.959 E2.43982
G1 X198.495 Y152.558 F4800.000
G1 F900
G1 X198.018 Y152.298 E2.45728
G1 X197.684 Y151.964 E2.47248
G1 X197.451 Y151.507 E2.48898
G1 X197.371 Y151.000 E2.50548
G1 X197.451 Y150.493 E2.52198
G1 X197.684 Y150.036 E2.53848
G1 X198.047 Y149.673 E2.55498
G1 X198.504 Y149.440 E2.57148
G1 X198.961 Y149.368 E2.58636
G1 X215.061 Y149.368 E3.10406
G1 X215.518 Y149.440 E3.11894
G1 X215.975 Y149.673 E3.13544
G1 X216.338 Y150.036 E3.15193
G1 X216.571 Y150.493 E3.16843
G1 X216.651 Y151.000 E3.18493
G1 X216.571 Y151.507 E3.20143
G1 X216.338 Y151.964 E3.21793
G1 X215.975 Y152.327 E3.23443
G1 X215.518 Y152.560 E3.25093
G1 X215.061 Y152.632 E3.26581
G1 X198.961 Y152.632 E3.78351
G1 X198.554 Y152.568 E3.79676
G1 X198.628 Y152.167 F4800.000
G1 F900
G1 X198.265 Y151.969 E3.81007
G1 X198.018 Y151.722 E3.82131
G1 X197.843 Y151.379 E3.83366
G1 X197.783 Y151.000 E3.84602
G1 X197.843 Y150.621 E3.85837
G1 X198.018 Y150.278 E3.87072
G1 X198.289 Y150.007 E3.88308
G1 X198.632 Y149.832 E3.89543
G1 X198.993 Y149.775 E3.90720
G1 X215.029 Y149.775 E4.42285
G1 X215.390 Y149.832 E4.43462
G1 X215.733 Y150.007 E4.44697
G1 X216.004 Y150.278 E4.45933
G1 X216.179 Y150.621 E4.47168
G1 X216.239 Y151.000 E4.48403
G1 X216.179 Y151.379 E4.49638
G1 X216.004 Y151.722 E4.50874
G1 X215.733 Y151.993 E4.52109
G1 X215.390 Y152.168 E4.53344
G1 X215.029 Y152.225 E4.54522
G1 X198.993 Y152.225 E5.06086
G1 X198.688 Y152.177 E5.07081
G1 X198.326 Y152.429 F4800.000
G1 F3840
G1 X198.265 Y151.969 E4.72124
G1 X198.018 Y151.722 E4.46176
G1 X197.843 Y151.379 E4.17666
G1 X197.831 Y151.305 E4.12081
G1 E4.07081 F3000.00000
G92 E0
G1 X198.362 Y146.949 F4800.000
G1 E1.00000 F3000.00000
G1 F900
G1 X197.772 Y146.627 E1.02161
G1 X197.351 Y146.206 E1.04077
G1 X197.059 Y145.634 E1.06141
G1 X196.959 Y145.000 E1.08206
G1 X197.059 Y144.366 E1.10270
G1 X197.351 Y143.794 E1.12335
G1 X197.805 Y143.340 E1.14400
G1 X198.377 Y143.048 E1.16464
G1 X198.929 Y142.961 E1.18262
G1 X215.093 Y142.961 E1.70239
G1 X215.645 Y143.048 E1.72037
G1 X216.217 Y143.340 E1.74102
G1 X216.671 Y143.794 E1.76166
G1 X216.963 Y144.366 E1.78231
G1 X217.063 Y145.000 E1.80295
G1 X216.963 Y145.634 E1.82360
G1 X216.671 Y146.206 E1.84425
G1 X216.217 Y146.660 E1.86489
G1 X215.645 Y146.952 E1.88554
G1 X215.093 Y147.039 E1.90352
G1 X198.929 Y147.039 E2.42328
G1 X198.421 Y146.959 E2.43982
G1 X198.495 Y146.558 F4800.000
G1 F900
G1 X198.018 Y146.298 E2.45728
G1 X197.684 Y145.964 E2.47248
G1 X197.451 Y145.507 E2.48898
G1 X197.371 Y145.000 E2.50548
G1 X197.451 Y144.493 E2.52198
G1 X197.684 Y144.036 E2.53848
G1 X198.047 Y143.673 E2.55498
G1 X198.504 Y143.440 E2.57147
G1 X198.961 Y143.368 E2.58635
G1 X215.061 Y143.368 E3.10406
G1 X215.518 Y143.440 E3.11893
G1 X215.975 Y143.673 E3.13543
G1 X216.338 Y144.036 E3.15193
G1 X216.571 Y144.493 E3.16843
G1 X216.651 Y145.000 E3.18493
G1 X216.571 Y145.507 E3.20143
G1 X216.338 Y145.964 E3.21793
G1 X215.975 Y146.327 E3.23443
G1 X215.518 Y146.560 E3.25093
G1 X215.061 Y146.632 E3.26581
G1 X198.961 Y146.632 E3.78351
G1 X198.554 Y146.568 E3.79675
G1 X198.628 Y146.167 F4800.000
G1 F900
G1 X198.265 Y145.969 E3.81007
G1 X198.018 Y145.722 E3.82131
G1 X197.843 Y145.379 E3.83366
G1 X197.783 Y145.000 E3.84602
G1 X197.843 Y144.621 E3.85837
G1 X198.018 Y144.278 E3.87072
G1 X198.289 Y144.007 E3.88307
G1 X198.632 Y143.832 E3.89543
G1 X198.993 Y143.775 E3.90720
G1 X215.029 Y143.775 E4.42284
G1 X215.390 Y143.832 E4.43462
G1 X215.733 Y144.007 E4.44697
G1 X216.004 Y144.278 E4.45932
G1 X216.179 Y144.621 E4.47168
G1 X216.239 Y145.000 E4.48403
G1 X216.179 Y145.379 E4.49638
G1 X216.004 Y145.722 E4.50874
G1 X215.733 Y145.993 E4.52109
G1 X215.390 Y146.168 E4.53344
G1 X215.029 Y146.225 E4.54522
G1 X198.993 Y146.225 E5.06086
G1 X198.688 Y146.177 E5.07081
G1 X198.326 Y146.429 F4800.000
G1 F3840
G1 X198.265 Y145.969 E4.72124
G1 X198.018 Y145.722 E4.46176
G1 X197.843 Y145.379 E4.17666
G1 X197.831 Y145.305 E4.12081
G1 E4.07081 F3000.00000
G92 E0
G1 X198.362 Y140.949 F4800.000
G1 E1.00000 F3000.00000
G1 F900
G1 X197.772 Y140.627 E1.02161
G1 X197.351 Y140.206 E1.04077
G1 X197.059 Y139.634 E1.06141
G1 X196.959 Y139.000 E1.08206
G1 X197.059 Y138.366 E1.10270
G1 X197.351 Y137.794 E1.12335
G1 X197.805 Y137.340 E1.14400
G1 X198.377 Y137.048 E1.16464
G1 X198.929 Y136.961 E1.18262
G1 X215.093 Y136.961 E1.70239
G1 X215.645 Y137.048 E1.72037
G1 X216.217 Y137.340 E1.74102
G1 X216.671 Y137.794 E1.76166
G1 X216.963 Y138.366 E1.78231
G1 X217.063 Y139.000 E1.80295
G1 X216.963 Y139.634 E1.82360
G1 X216.671 Y140.206 E1.84425
G1 X216.217 Y140.660 E1.86489
G1 X215.645 Y140.952 E1.88554
G1 X215.093 Y141.039 E1.90352
G1 X198.929 Y141.039 E2.42328
G1 X198.421 Y140.959 E2.43982
G1 X198.495 Y140.558 F4800.000
G1 F900
G1 X198.018 Y140.298 E2.45728
G1 X197.684 Y139.964 E2.47248
G1 X197.451 Y139.507 E2.48898
G1 X197.371 Y139.000 E2.50548
G1 X197.451 Y138.493 E2.52198
G1 X197.684 Y138.036 E2.53848
G1 X198.047 Y137.673 E2.55498
G1 X198.504 Y137.440 E2.57148
G1 X198.961 Y137.368 E2.58636
G1 X215.061 Y137.368 E3.10406
G1 X215.518 Y137.440 E3.11894
G1 X215.975 Y137.673 E3.13544
G1 X216.338 Y138.036 E3.15193
G1 X216.571 Y138.493 E3.16843
G1 X216.651 Y139.000 E3.18493
G1 X216.571 Y139.507 E3.20143
G1 X216.338 Y139.964 E3.21793
G1 X215.975 Y140.327 E3.23443
G1 X215.518 Y140.560 E3.25093
G1 X215.061 Y140.632 E3.26581
G1 X198.961 Y140.632 E3.78351
G1 X198.554 Y140.568 E3.79676
G1 X198.628 Y140.167 F4800.000
G1 F900
