; generated by Slic3r Prusa Edition 1.41.0+win64 on 2018-10-02 at 21:43:33

; 

; external perimeters extrusion width = 0.45mm
; perimeters extrusion width = 0.45mm
; infill extrusion width = 0.45mm
; solid infill extrusion width = 0.45mm
; top infill extrusion width = 0.40mm
; support material extrusion width = 0.40mm

M107
M80 ; turn on PSU
M190 S50
M104 S190 ; start E heating
M17; enable motors
G28 X Y ; Z ; Home
M109 S190
G91
G1 E5 F200
G90
; Filament gcode
G21 ; set units to millimeters
G90 ; use absolute coordinates
M82 ; use absolute distances for extrusion
G92 E0
G1 Z0.200 F4800.000
G1 E-1.00000 F3000.00000
G92 E0
G1 X151.902 Y109.130 F4800.000
G1 E1.00000 F3000.00000
G1 F900
G1 X152.919 Y107.909 E1.05108
G1 X153.604 Y107.291 E1.08074
G1 X154.547 Y106.632 E1.11774
G1 X155.379 Y106.188 E1.14807
G1 X156.351 Y105.807 E1.18164
G1 X157.352 Y105.549 E1.21489
G1 X158.318 Y105.417 E1.24623
G1 X173.536 Y104.070 E1.73750
G1 X205.705 Y104.068 E2.77195
G1 X221.933 Y105.441 E3.29564
G1 X223.379 Y105.728 E3.34302
G1 X224.250 Y106.027 E3.37266
G1 X225.229 Y106.500 E3.40761
G1 X226.101 Y107.063 E3.44100
G1 X226.968 Y107.794 E3.47747
G1 X227.663 Y108.546 E3.51038
G1 X228.305 Y109.442 E3.54585
G1 X228.814 Y110.384 E3.58026
G1 X229.230 Y111.473 E3.61775
G1 X229.463 Y112.415 E3.64896
G1 X229.592 Y113.435 E3.68200
G1 X230.311 Y127.262 E4.12724
G1 X230.312 Y163.070 E5.27869
G1 X229.544 Y177.071 E5.72960
G1 X229.345 Y178.123 E5.76404
G1 X229.028 Y179.112 E5.79742
G1 X228.579 Y180.086 E5.83189
G1 X228.097 Y180.871 E5.86153
G1 X227.142 Y182.032 E5.90988
G1 X226.475 Y182.646 E5.93904
G1 X225.709 Y183.208 E5.96956
G1 X224.475 Y183.876 E6.01469
G1 X222.803 Y184.418 E6.07121
G1 X221.677 Y184.583 E6.10783
G1 X206.469 Y185.930 E6.59875
G1 X174.033 Y185.925 E7.64178
G1 X157.852 Y184.534 E8.16403
G1 X156.851 Y184.338 E8.19683
G1 X155.868 Y184.021 E8.23004
G1 X154.910 Y183.577 E8.26398
G1 X154.130 Y183.098 E8.29344
G1 X152.964 Y182.138 E8.34198
G1 X152.350 Y181.470 E8.37115
G1 X151.783 Y180.696 E8.40202
G1 X151.116 Y179.456 E8.44731
G1 X150.567 Y177.736 E8.50536
G1 X150.405 Y176.523 E8.54470
G1 X149.677 Y162.755 E8.98805
G1 X149.679 Y127.192 E10.13162
G1 X150.455 Y112.935 E10.59076
G1 X150.655 Y111.877 E10.62539
G1 X150.972 Y110.888 E10.65878
G1 X151.420 Y109.915 E10.69322
G1 X151.871 Y109.181 E10.72093
G1 X152.218 Y109.394 F4800.000
G1 F900
G1 X153.202 Y108.202 E10.77063
G1 X153.853 Y107.613 E10.79888
G1 X154.760 Y106.979 E10.83446
G1 X155.548 Y106.558 E10.86318
G1 X156.479 Y106.194 E10.89533
G1 X157.438 Y105.947 E10.92717
G1 X158.368 Y105.822 E10.95734
G1 X173.550 Y104.477 E11.44745
G1 X205.705 Y104.475 E12.48146
G1 X221.891 Y105.846 E13.00381
G1 X223.230 Y106.108 E13.04767
G1 X224.080 Y106.397 E13.07655
G1 X225.013 Y106.846 E13.10985
G1 X225.854 Y107.387 E13.14198
G1 X226.677 Y108.079 E13.17658
G1 X227.343 Y108.798 E13.20808
G1 X227.956 Y109.651 E13.24188
G1 X228.444 Y110.552 E13.27483
G1 X228.842 Y111.595 E13.31071
G1 X229.063 Y112.487 E13.34027
G1 X229.186 Y113.464 E13.37192
G1 X229.904 Y127.271 E13.81652
G1 X229.905 Y163.061 E14.96740
G1 X229.141 Y177.013 E15.41669
G1 X228.950 Y178.025 E15.44983
G1 X228.646 Y178.972 E15.48180
G1 X228.218 Y179.899 E15.51464
G1 X227.752 Y180.655 E15.54318
G1 X226.850 Y181.749 E15.58879
G1 X225.472 Y182.877 E15.64603
G1 X224.308 Y183.504 E15.68856
G1 X222.686 Y184.027 E15.74336
G1 X221.637 Y184.178 E15.77743
G1 X206.450 Y185.523 E16.26771
G1 X174.060 Y185.519 E17.30928
G1 X157.914 Y184.131 E17.83039
G1 X156.955 Y183.945 E17.86179
G1 X156.014 Y183.641 E17.89359
G1 X155.097 Y183.216 E17.92608
G1 X154.341 Y182.750 E17.95463
G1 X153.248 Y181.846 E18.00026
G1 X152.663 Y181.210 E18.02803
G1 X152.115 Y180.460 E18.05792
G1 X151.488 Y179.289 E18.10060
G1 X150.959 Y177.622 E18.15686
G1 X150.811 Y176.496 E18.19337
G1 X150.084 Y162.738 E18.63640
G1 X150.086 Y127.211 E19.77883
G1 X150.858 Y112.993 E20.23669
G1 X151.049 Y111.980 E20.26985
G1 X151.352 Y111.033 E20.30182
G1 X151.782 Y110.102 E20.33479
G1 X152.186 Y109.445 E20.35959
G1 F3840
G1 X152.996 Y108.454 E19.40959
G1 E19.35959 F3000.00000
G92 E0
G1 X214.008 Y111.239 F4800.000
G1 E1.00000 F3000.00000
G1 F900
G1 X219.033 Y108.945 E1.17761
G1 X219.651 Y108.746 E1.19849
G1 X220.293 Y108.622 E1.21952
G1 X220.971 Y108.576 E1.24137
G1 X221.625 Y108.612 E1.26243
G1 X222.296 Y108.733 E1.28435
G1 X222.972 Y108.947 E1.30716
G1 X223.591 Y109.235 E1.32912
G1 X224.145 Y109.580 E1.35011
G1 X224.672 Y110.008 E1.37194
G1 X225.144 Y110.500 E1.39385
G1 X225.550 Y111.047 E1.41576
G1 X225.885 Y111.641 E1.43769
G1 X226.159 Y112.325 E1.46138
G1 X226.333 Y113.009 E1.48408
G1 X226.414 Y113.659 E1.50514
G1 X226.414 Y114.341 E1.52708
G1 X226.324 Y115.040 E1.54974
G1 X226.160 Y115.673 E1.57075
G1 X225.922 Y116.281 E1.59176
G1 X223.786 Y120.949 E1.75683
G1 X224.238 Y121.401 E1.77739
G1 X224.414 Y121.750 E1.78997
G1 X224.449 Y121.913 E1.79533
G1 X224.449 Y122.802 E1.82390
G1 X224.828 Y122.917 E1.83665
G1 X225.202 Y123.142 E1.85071
G1 X225.510 Y123.468 E1.86511
G1 X225.750 Y123.927 E1.88177
G1 X225.845 Y124.228 E1.89194
G1 X225.867 Y124.536 E1.90184
G1 X226.009 Y124.631 E1.90735
G1 X226.241 Y124.884 E1.91838
G1 X227.173 Y126.714 E1.98439
G1 X227.305 Y127.266 E2.00264
G1 X227.305 Y163.288 E3.16098
G1 X227.182 Y163.662 E3.17364
G1 X227.115 Y163.770 E3.17774
G1 X226.593 Y164.295 E3.20154
G1 X226.580 Y164.751 E3.21622
G1 X226.450 Y165.099 E3.22815
G1 X226.381 Y165.197 E3.23202
G1 X225.886 Y165.682 E3.25432
G1 X225.665 Y166.141 E3.27067
G1 X225.253 Y166.552 E3.28940
G1 X225.154 Y166.622 E3.29330
G1 X224.802 Y166.754 E3.30538
G1 X224.449 Y166.775 E3.31676
G1 X224.449 Y168.091 E3.35907
G1 X224.428 Y168.207 E3.36289
G1 X224.237 Y168.600 E3.37694
G1 X223.782 Y169.055 E3.39760
G1 X226.038 Y173.989 E3.57207
G1 X226.261 Y174.679 E3.59537
G1 X226.382 Y175.323 E3.61646
G1 X226.424 Y176.003 E3.63837
G1 X226.378 Y176.708 E3.66109
G1 X226.260 Y177.325 E3.68128
G1 X226.063 Y177.946 E3.70223
G1 X225.780 Y178.564 E3.72409
G1 X225.406 Y179.164 E3.74684
G1 X224.973 Y179.694 E3.76883
G1 X224.476 Y180.164 E3.79082
G1 X223.927 Y180.567 E3.81271
G1 X223.357 Y180.886 E3.83372
G1 X222.626 Y181.175 E3.85900
G1 X222.018 Y181.328 E3.87917
G1 X221.395 Y181.410 E3.89939
G1 X220.686 Y181.415 E3.92216
G1 X219.960 Y181.324 E3.94572
G1 X219.326 Y181.160 E3.96677
G1 X218.719 Y180.922 E3.98773
G1 X214.062 Y178.791 E4.15242
G1 X213.826 Y179.026 E4.16313
G1 X213.727 Y179.096 E4.16703
G1 X213.464 Y179.209 E4.17622
G1 X213.273 Y179.236 E4.18244
G1 X213.147 Y179.353 E4.18799
G1 X212.612 Y179.687 E4.20826
G1 X212.205 Y179.809 E4.22193
G1 X211.647 Y179.825 E4.23988
G1 X211.471 Y180.351 E4.25773
G1 X211.404 Y180.460 E4.26184
G1 X210.969 Y180.900 E4.28171
G1 X210.871 Y180.969 E4.28560
G1 X210.520 Y181.100 E4.29763
G1 X210.290 Y181.114 E4.30506
G1 X210.153 Y181.221 E4.31063
G1 X209.021 Y181.798 E4.35148
G1 X208.867 Y181.837 E4.35661
G1 X208.722 Y181.951 E4.36252
G1 X207.606 Y182.519 E4.40281
G1 X207.367 Y182.581 E4.41074
G1 X207.215 Y182.686 E4.41667
G1 X206.899 Y182.822 E4.42774
G1 X206.463 Y182.920 E4.44212
G1 X205.479 Y182.925 E4.47376
G1 X205.349 Y182.901 E4.47801
G1 X205.222 Y182.925 E4.48216
G1 X204.046 Y182.925 E4.51996
G1 X203.920 Y182.901 E4.52409
G1 X203.794 Y182.925 E4.52822
G1 X202.618 Y182.925 E4.56603
G1 X202.492 Y182.901 E4.57016
G1 X202.365 Y182.925 E4.57429
G1 X201.190 Y182.925 E4.61210
G1 X201.063 Y182.901 E4.61623
G1 X200.937 Y182.925 E4.62036
G1 X199.761 Y182.925 E4.65816
G1 X199.635 Y182.901 E4.66229
G1 X199.509 Y182.925 E4.66642
G1 X198.333 Y182.925 E4.70423
G1 X198.207 Y182.901 E4.70836
G1 X198.080 Y182.925 E4.71249
G1 X196.905 Y182.925 E4.75030
G1 X196.778 Y182.901 E4.75443
G1 X196.652 Y182.925 E4.75856
G1 X195.476 Y182.925 E4.79636
G1 X195.350 Y182.901 E4.80049
G1 X195.224 Y182.925 E4.80462
G1 X194.048 Y182.925 E4.84243
G1 X193.922 Y182.901 E4.84656
G1 X193.795 Y182.925 E4.85069
G1 X192.620 Y182.925 E4.88849
G1 X192.493 Y182.901 E4.89262
G1 X192.367 Y182.925 E4.89676
G1 X191.191 Y182.925 E4.93456
G1 X191.065 Y182.901 E4.93869
G1 X190.939 Y182.925 E4.94282
G1 X189.763 Y182.925 E4.98063
G1 X189.637 Y182.901 E4.98476
G1 X189.510 Y182.925 E4.98889
G1 X188.335 Y182.925 E5.02669
G1 X188.208 Y182.901 E5.03082
G1 X188.082 Y182.925 E5.03495
G1 X186.906 Y182.925 E5.07276
G1 X186.780 Y182.901 E5.07689
G1 X186.654 Y182.925 E5.08102
G1 X185.478 Y182.925 E5.11883
G1 X185.352 Y182.901 E5.12296
G1 X185.225 Y182.925 E5.12709
G1 X184.050 Y182.925 E5.16489
G1 X183.923 Y182.901 E5.16902
G1 X183.797 Y182.925 E5.17315
G1 X182.621 Y182.925 E5.21096
G1 X182.495 Y182.901 E5.21509
G1 X182.369 Y182.925 E5.21922
G1 X181.193 Y182.925 E5.25703
G1 X181.067 Y182.901 E5.26116
G1 X180.940 Y182.925 E5.26529
G1 X179.765 Y182.925 E5.30309
G1 X179.638 Y182.901 E5.30722
G1 X179.512 Y182.925 E5.31135
G1 X178.336 Y182.925 E5.34916
G1 X178.210 Y182.901 E5.35329
G1 X178.084 Y182.925 E5.35742
G1 X176.908 Y182.925 E5.39522
G1 X176.782 Y182.901 E5.39935
G1 X176.656 Y182.925 E5.40348
G1 X175.480 Y182.925 E5.44129
G1 X175.354 Y182.901 E5.44542
G1 X175.227 Y182.925 E5.44955
G1 X174.051 Y182.925 E5.48737
G1 X173.868 Y182.884 E5.49341
G1 X173.484 Y182.913 E5.50580
G1 X173.185 Y182.859 E5.51557
G1 X172.355 Y182.498 E5.54467
G1 X171.981 Y182.309 E5.55815
G1 X171.835 Y182.195 E5.56409
G1 X171.680 Y182.156 E5.56922
G1 X170.551 Y181.581 E5.60996
G1 X170.406 Y181.467 E5.61588
G1 X170.252 Y181.428 E5.62101
G1 X169.125 Y180.854 E5.66168
G1 X168.749 Y180.516 E5.67792
G1 X168.516 Y180.133 E5.69236
G1 X168.416 Y179.814 E5.70309
G1 X168.032 Y179.798 E5.71544
G1 X167.841 Y179.728 E5.72198
G1 X167.527 Y179.708 E5.73212
G1 X167.310 Y179.643 E5.73939
G1 X165.988 Y178.763 E5.79045
G1 X160.989 Y181.047 E5.96719
G1 X160.297 Y181.267 E5.99054
G1 X159.655 Y181.385 E6.01155
G1 X159.002 Y181.424 E6.03257
G1 X158.296 Y181.379 E6.05531
G1 X157.627 Y181.248 E6.07723
G1 X156.978 Y181.034 E6.09920
G1 X156.339 Y180.727 E6.12202
G1 X155.769 Y180.358 E6.14383
G1 X155.306 Y179.973 E6.16319
G1 X154.889 Y179.535 E6.18264
G1 X154.454 Y178.959 E6.20584
G1 X154.116 Y178.359 E6.22800
G1 X153.841 Y177.675 E6.25170
G1 X153.667 Y176.991 E6.27440
G1 X153.586 Y176.341 E6.29546
G1 X153.586 Y175.659 E6.31740
G1 X153.676 Y174.960 E6.34006
G1 X153.840 Y174.327 E6.36107
G1 X154.078 Y173.719 E6.38208
G1 X156.216 Y169.047 E6.54729
G1 X155.750 Y168.581 E6.56849
G1 X155.680 Y168.482 E6.57240
G1 X155.549 Y168.132 E6.58440
G1 X155.534 Y167.850 E6.59350
G1 X155.308 Y167.648 E6.60323
G1 X154.961 Y167.137 E6.62310
G1 X154.779 Y166.641 E6.64009
G1 X154.758 Y166.489 E6.64504
G1 X154.427 Y166.158 E6.66006
G1 X154.310 Y165.996 E6.66650
G1 X154.094 Y165.422 E6.68624
G1 X153.978 Y165.344 E6.69072
G1 X153.747 Y165.091 E6.70174
G1 X152.815 Y163.262 E6.76776
G1 X152.682 Y162.710 E6.78601
G1 X152.682 Y127.290 E7.92499
G1 X152.815 Y126.738 E7.94324
G1 X153.747 Y124.909 E8.00926
G1 X153.979 Y124.656 E8.02029
G1 X154.121 Y124.560 E8.02580
G1 X154.142 Y124.253 E8.03569
G1 X154.235 Y123.957 E8.04568
G1 X154.451 Y123.527 E8.06115
G1 X154.687 Y123.236 E8.07320
G1 X154.855 Y123.108 E8.07998
G1 X154.921 Y122.940 E8.08579
G1 X155.299 Y122.363 E8.10795
G1 X155.539 Y122.145 E8.11840
G1 X155.539 Y121.928 E8.12538
G1 X155.560 Y121.808 E8.12928
G1 X155.713 Y121.472 E8.14118
G1 X156.218 Y120.947 E8.16460
G1 X153.971 Y116.034 E8.33832
G1 X153.746 Y115.350 E8.36146
G1 X153.612 Y114.627 E8.38510
G1 X153.576 Y114.000 E8.40530
G1 X153.612 Y113.373 E8.42549
G1 X153.746 Y112.651 E8.44912
G1 X153.977 Y111.952 E8.47281
G1 X154.274 Y111.338 E8.49472
G1 X154.644 Y110.767 E8.51662
G1 X155.084 Y110.246 E8.53853
G1 X155.586 Y109.785 E8.56044
G1 X156.141 Y109.390 E8.58234
G1 X156.741 Y109.068 E8.60425
G1 X157.377 Y108.824 E8.62615
G1 X158.038 Y108.662 E8.64806
G1 X158.715 Y108.583 E8.66995
G1 X159.370 Y108.588 E8.69103
G1 X160.021 Y108.672 E8.71212
G1 X160.679 Y108.842 E8.73399
G1 X161.282 Y109.079 E8.75480
G1 X165.933 Y111.207 E8.91929
G1 X166.187 Y110.961 E8.93065
G1 X166.290 Y110.896 E8.93457
G1 X166.522 Y110.800 E8.94264
G1 X166.715 Y110.773 E8.94891
G1 X166.835 Y110.660 E8.95420
G1 X167.922 Y109.921 E8.99647
G1 X168.117 Y109.841 E9.00325
G1 X168.236 Y109.688 E9.00949
G1 X168.527 Y109.451 E9.02158
G1 X169.538 Y108.936 E9.05805
G1 X169.692 Y108.897 E9.06317
G1 X169.837 Y108.783 E9.06909
G1 X170.966 Y108.208 E9.10983
G1 X171.121 Y108.169 E9.11496
G1 X171.266 Y108.056 E9.12087
G1 X172.382 Y107.487 E9.16116
G1 X172.621 Y107.425 E9.16909
G1 X172.790 Y107.312 E9.17564
G1 X173.305 Y107.116 E9.19338
G1 X173.597 Y107.075 E9.20285
G1 X174.513 Y107.075 E9.23230
G1 X174.639 Y107.099 E9.23643
G1 X174.766 Y107.075 E9.24056
G1 X175.941 Y107.075 E9.27837
G1 X176.068 Y107.099 E9.28250
G1 X176.194 Y107.075 E9.28663
G1 X177.370 Y107.075 E9.32443
G1 X177.496 Y107.099 E9.32856
G1 X177.622 Y107.075 E9.33269
G1 X178.798 Y107.075 E9.37050
G1 X178.924 Y107.099 E9.37463
G1 X179.051 Y107.075 E9.37876
G1 X180.226 Y107.075 E9.41657
G1 X180.353 Y107.099 E9.42070
G1 X180.479 Y107.075 E9.42483
G1 X181.655 Y107.075 E9.46263
G1 X181.781 Y107.099 E9.46676
G1 X181.907 Y107.075 E9.47089
G1 X183.083 Y107.075 E9.50870
G1 X183.209 Y107.099 E9.51283
G1 X183.336 Y107.075 E9.51696
G1 X184.511 Y107.075 E9.55477
G1 X184.638 Y107.099 E9.55890
G1 X184.764 Y107.075 E9.56303
G1 X185.940 Y107.075 E9.60083
G1 X186.066 Y107.099 E9.60496
G1 X186.192 Y107.075 E9.60909
G1 X187.368 Y107.075 E9.64690
G1 X187.494 Y107.099 E9.65103
G1 X187.621 Y107.075 E9.65516
G1 X188.796 Y107.075 E9.69296
G1 X188.923 Y107.099 E9.69710
G1 X189.049 Y107.075 E9.70123
G1 X190.225 Y107.075 E9.73903
G1 X190.351 Y107.099 E9.74316
G1 X190.477 Y107.075 E9.74729
G1 X191.653 Y107.075 E9.78510
G1 X191.779 Y107.099 E9.78923
G1 X191.906 Y107.075 E9.79336
G1 X193.081 Y107.075 E9.83116
G1 X193.208 Y107.099 E9.83529
G1 X193.334 Y107.075 E9.83942
G1 X194.510 Y107.075 E9.87723
G1 X194.636 Y107.099 E9.88136
G1 X194.762 Y107.075 E9.88549
G1 X195.938 Y107.075 E9.92330
G1 X196.064 Y107.099 E9.92743
G1 X196.190 Y107.075 E9.93156
G1 X197.366 Y107.075 E9.96936
G1 X197.492 Y107.099 E9.97349
G1 X197.619 Y107.075 E9.97762
G1 X198.794 Y107.075 E10.01543
G1 X198.921 Y107.099 E10.01956
G1 X199.047 Y107.075 E10.02369
G1 X200.223 Y107.075 E10.06150
G1 X200.349 Y107.099 E10.06563
G1 X200.475 Y107.075 E10.06976
G1 X201.651 Y107.075 E10.10756
G1 X201.777 Y107.099 E10.11169
G1 X201.904 Y107.075 E10.11582
G1 X203.079 Y107.075 E10.15363
G1 X203.206 Y107.099 E10.15776
G1 X203.332 Y107.075 E10.16189
G1 X204.508 Y107.075 E10.19969
G1 X204.634 Y107.099 E10.20383
G1 X204.760 Y107.075 E10.20796
G1 X205.936 Y107.075 E10.24577
G1 X206.111 Y107.113 E10.25152
G1 X206.561 Y107.085 E10.26601
G1 X206.803 Y107.136 E10.27397
G1 X207.656 Y107.507 E10.30389
G1 X208.007 Y107.685 E10.31653
G1 X208.153 Y107.799 E10.32248
G1 X208.307 Y107.838 E10.32761
G1 X209.436 Y108.413 E10.36835
G1 X209.581 Y108.526 E10.37427
G1 X209.736 Y108.566 E10.37939
G1 X210.864 Y109.141 E10.42013
G1 X211.203 Y109.434 E10.43454
G1 X211.405 Y109.745 E10.44646
G1 X211.564 Y109.766 E10.45162
G1 X212.142 Y109.964 E10.47127
G1 X212.492 Y110.210 E10.48503
G1 X212.599 Y110.323 E10.49002
G1 X212.780 Y110.398 E10.49631
G1 X213.959 Y111.205 E10.54225
G1 F3840
G1 X215.128 Y110.684 E9.59225
G1 E9.54225 F3000.00000
G92 E0
G1 X211.173 Y110.152 F4800.000
G1 E1.00000 F3000.00000
G1 F900
G1 X211.474 Y110.164 E1.00969
G1 X211.934 Y110.315 E1.02524
G1 X212.234 Y110.527 E1.03706
G1 X212.357 Y110.668 E1.04309
G1 X212.574 Y110.750 E1.05053
G1 X213.619 Y111.461 E1.09118
G1 X213.893 Y111.739 E1.10374
G1 X219.169 Y109.329 E1.29025
G1 X219.764 Y109.137 E1.31034
G1 X220.357 Y109.024 E1.32975
G1 X220.985 Y108.983 E1.34999
G1 X221.589 Y109.017 E1.36944
G1 X222.209 Y109.131 E1.38973
G1 X222.835 Y109.330 E1.41086
G1 X223.407 Y109.598 E1.43116
G1 X223.918 Y109.918 E1.45054
G1 X224.405 Y110.315 E1.47076
G1 X224.840 Y110.771 E1.49102
G1 X225.215 Y111.278 E1.51128
G1 X225.523 Y111.828 E1.53155
G1 X225.776 Y112.463 E1.55354
G1 X225.931 Y113.073 E1.57377
G1 X226.007 Y113.672 E1.59319
G1 X226.007 Y114.328 E1.61429
G1 X225.926 Y114.951 E1.63449
G1 X225.776 Y115.536 E1.65391
G1 X225.549 Y116.117 E1.67396
