; generated by Slic3r Prusa Edition 1.41.0+win64 on 2018-10-01 at 21:35:10

; 

; external perimeters extrusion width = 0.45mm
; perimeters extrusion width = 0.45mm
; infill extrusion width = 0.45mm
; solid infill extrusion width = 0.45mm
; top infill extrusion width = 0.40mm
; support material extrusion width = 0.40mm

M107
M80 ; turn on PSU
M190 S50
M104 S190 ; start E heating
M17; enable motors
G28 X Y ; Z ; Home
M109 S190
G91
G1 E5 F200
G90
; Filament gcode
G21 ; set units to millimeters
G90 ; use absolute coordinates
M82 ; use absolute distances for extrusion
G92 E0
G1 Z0.200 F4800.000
G1 E-1.00000 F3000.00000
G92 E0
G1 X152.208 Y108.714 F4800.000
G1 E1.00000 F3000.00000
G1 F900
G1 X152.952 Y107.871 E1.03614
G1 X153.912 Y107.054 E1.07668
G1 X155.010 Y106.370 E1.11826
G1 X156.024 Y105.926 E1.15387
G1 X157.788 Y105.476 E1.21240
G1 X158.983 Y105.389 E1.25094
G1 X190.005 Y105.356 E2.24849
G1 X221.016 Y105.389 E3.24568
G1 X222.182 Y105.472 E3.28329
G1 X223.944 Y105.913 E3.34170
G1 X224.960 Y106.354 E3.37729
G1 X226.017 Y107.002 E3.41717
G1 X227.315 Y108.155 E3.47301
G1 X228.006 Y108.994 E3.50793
G1 X228.652 Y110.052 E3.54782
G1 X229.284 Y111.675 E3.60381
G1 X229.516 Y112.730 E3.63855
G1 X229.611 Y113.988 E3.67913
G1 X229.610 Y176.058 E5.67507
G1 X229.444 Y177.658 E5.72678
G1 X229.184 Y178.675 E5.76056
G1 X228.780 Y179.683 E5.79547
G1 X228.148 Y180.792 E5.83651
G1 X227.747 Y181.339 E5.85833
G1 X226.983 Y182.191 E5.89514
G1 X225.875 Y183.095 E5.94111
G1 X224.863 Y183.695 E5.97895
G1 X223.667 Y184.187 E6.02052
G1 X222.412 Y184.494 E6.06209
G1 X221.256 Y184.604 E6.09943
G1 X158.942 Y184.610 E8.10320
G1 X157.348 Y184.446 E8.15475
G1 X156.330 Y184.186 E8.18852
G1 X155.317 Y183.780 E8.22361
G1 X154.208 Y183.148 E8.26465
G1 X153.661 Y182.747 E8.28647
G1 X152.809 Y181.983 E8.32328
G1 X151.905 Y180.875 E8.36925
G1 X151.305 Y179.863 E8.40708
G1 X150.813 Y178.667 E8.44866
G1 X150.506 Y177.411 E8.49023
G1 X150.396 Y176.255 E8.52757
G1 X150.390 Y113.942 E10.53134
G1 X150.556 Y112.342 E10.58306
G1 X150.815 Y111.325 E10.61682
G1 X151.220 Y110.317 E10.65175
G1 X152.177 Y108.765 E10.71039
G1 X152.520 Y108.977 F4800.000
G1 F900
G1 X153.238 Y108.161 E10.74534
G1 X154.161 Y107.376 E10.78428
G1 X155.212 Y106.724 E10.82406
G1 X156.183 Y106.301 E10.85813
G1 X157.861 Y105.877 E10.91377
G1 X158.984 Y105.796 E10.94998
G1 X190.005 Y105.763 E11.94748
G1 X221.015 Y105.796 E12.94465
G1 X222.117 Y105.874 E12.98018
G1 X223.792 Y106.291 E13.03568
G1 X224.769 Y106.713 E13.06991
G1 X225.780 Y107.333 E13.10805
G1 X227.011 Y108.425 E13.16096
G1 X227.672 Y109.227 E13.19437
G1 X228.293 Y110.244 E13.23269
G1 X228.889 Y111.771 E13.28541
G1 X229.113 Y112.786 E13.31882
G1 X229.204 Y113.995 E13.35783
G1 X229.203 Y176.050 E15.35329
G1 X229.048 Y177.566 E15.40227
G1 X228.797 Y178.549 E15.43491
G1 X228.406 Y179.522 E15.46865
G1 X227.432 Y181.081 E15.52774
G1 X226.707 Y181.892 E15.56273
G1 X225.643 Y182.760 E15.60686
G1 X224.680 Y183.332 E15.64290
G1 X223.536 Y183.802 E15.68266
G1 X222.335 Y184.094 E15.72242
G1 X221.223 Y184.198 E15.75831
G1 X158.950 Y184.203 E17.76080
G1 X157.435 Y184.048 E17.80978
G1 X156.451 Y183.797 E17.84242
G1 X155.478 Y183.406 E17.87616
G1 X153.919 Y182.433 E17.93525
G1 X153.108 Y181.707 E17.97024
G1 X152.240 Y180.643 E18.01437
G1 X151.668 Y179.680 E18.05041
G1 X151.198 Y178.536 E18.09018
G1 X150.906 Y177.334 E18.12994
G1 X150.802 Y176.223 E18.16582
G1 X150.797 Y113.950 E20.16831
G1 X150.952 Y112.434 E20.21730
G1 X151.203 Y111.451 E20.24993
G1 X151.594 Y110.478 E20.28367
G1 X152.489 Y109.028 E20.33846
; PURGING FINISHED
G1 F3840
G1 X153.238 Y108.161 E19.48783
G1 X153.340 Y108.074 E19.38846
G1 E19.33846 F3000.00000
G92 E0
G1 X158.713 Y138.360 F4800.000
G1 E1.00000 F3000.00000
G1 F900
G1 X158.713 Y150.816 E1.35134
G1 X159.035 Y152.434 E1.39787
G1 X159.427 Y153.825 E1.43864
G1 X159.427 Y136.175 E1.93650
G1 X159.714 Y135.159 E1.96626
G1 X160.142 Y134.000 E2.00112
G1 X160.142 Y156.000 E2.62167
G1 X160.579 Y157.186 E2.65734
G1 X160.856 Y157.786 E2.67596
G1 X160.856 Y132.214 E3.39728
G1 X161.570 Y130.665 E3.44539
G1 X161.570 Y159.335 E4.25410
G1 X162.284 Y160.632 E4.29586
G1 X162.284 Y129.368 E5.17772
G1 X162.848 Y128.361 E5.21026
G1 X162.998 Y128.136 E5.21790
G1 X162.998 Y161.864 E6.16925
G1 X163.712 Y162.933 E6.20551
G1 X163.712 Y127.067 E7.21715
G1 X164.237 Y126.282 E7.24379
G1 X164.427 Y126.042 E7.25242
G1 X164.427 Y163.958 E8.32193
G1 X165.141 Y164.864 E8.35447
G1 X165.141 Y125.136 E9.47507
G1 X165.855 Y124.243 E9.50732
G1 X165.855 Y165.757 E10.67830
G1 X166.569 Y166.530 E10.70797
G1 X166.569 Y123.470 E11.92253
G1 X167.283 Y122.698 E11.95221
G1 X167.283 Y167.302 E13.21035
G1 X167.482 Y167.518 E13.21863
G1 X167.997 Y167.994 E13.23841
G1 X167.997 Y122.006 E14.53556
G1 X168.711 Y121.346 E14.56299
G1 X168.711 Y168.654 E15.89739
G1 X169.426 Y169.299 E15.92454
G1 X169.426 Y120.701 E17.29536
G1 X170.140 Y120.138 E17.32101
G1 X170.140 Y169.862 E18.72358
G1 X170.854 Y170.425 E18.74923
G1 X170.854 Y119.575 E20.18357
G1 X171.282 Y119.237 E20.19895
G1 X171.568 Y119.046 E20.20865
G1 X171.568 Y170.954 E21.67281
G1 X172.282 Y171.431 E21.69704
G1 X172.282 Y118.569 E23.18812
G1 X172.996 Y118.092 E23.21235
G1 X172.996 Y171.908 E24.73035
G1 X173.361 Y172.152 E24.74272
G1 X173.711 Y172.348 E24.75402
G1 X173.711 Y117.652 E26.29680
G1 X174.425 Y117.252 E26.31989
G1 X174.425 Y172.748 E27.88524
G1 X175.139 Y173.148 E27.90833
G1 X175.139 Y116.852 E29.49624
G1 X175.543 Y116.626 E29.50929
G1 X175.853 Y116.483 E29.51893
G1 X175.853 Y173.517 E31.12767
G1 X176.567 Y173.846 E31.14986
G1 X176.567 Y116.154 E32.77717
G1 X177.281 Y115.825 E32.79935
G1 X177.281 Y174.175 E34.44523
G1 X177.996 Y174.488 E34.46722
G1 X177.996 Y115.512 E36.13074
G1 X178.710 Y115.249 E36.15221
G1 X178.710 Y174.751 E37.83058
G1 X179.424 Y175.015 E37.85205
G1 X179.424 Y114.985 E39.54529
G1 X180.138 Y114.722 E39.56676
G1 X180.138 Y175.278 E41.27487
G1 X180.852 Y175.482 E41.29581
G1 X180.852 Y114.518 E43.01538
G1 X181.566 Y114.317 E43.03631
G1 X181.566 Y175.683 E44.76725
G1 X182.281 Y175.884 E44.78818
G1 X182.281 Y114.116 E46.53047
G1 X182.566 Y114.035 E46.53884
G1 X182.995 Y113.950 E46.55117
G1 X182.995 Y176.050 E48.30282
G1 X183.709 Y176.192 E48.32335
G1 X183.709 Y113.808 E50.08302
G1 X184.423 Y113.666 E50.10356
G1 X184.423 Y176.334 E51.87123
G1 X185.018 Y176.453 E51.88835
G1 X185.137 Y176.467 E51.89173
G1 X185.137 Y113.533 E53.66688
G1 X185.851 Y113.449 E53.68716
G1 X185.851 Y176.551 E55.46708
G1 X186.565 Y176.636 E55.48736
G1 X186.565 Y113.364 E57.27205
G1 X187.280 Y113.280 E57.29234
G1 X187.280 Y176.720 E59.08179
G1 X187.994 Y176.766 E59.10198
G1 X187.994 Y113.234 E60.89400
G1 X188.708 Y113.206 E60.91416
G1 X188.708 Y176.794 E62.70777
G1 X189.422 Y176.822 E62.72793
G1 X189.422 Y113.178 E64.52313
G1 X190.136 Y113.161 E64.54328
G1 X190.136 Y176.839 E66.33945
G1 X190.850 Y176.811 E66.35961
G1 X190.850 Y113.189 E68.15420
G1 X191.565 Y113.217 E68.17436
G1 X191.565 Y176.783 E69.96737
G1 X192.279 Y176.755 E69.98753
G1 X192.279 Y113.245 E71.77895
G1 X192.993 Y113.312 E71.79918
G1 X192.993 Y176.688 E73.58682
G1 X193.707 Y176.604 E73.60710
G1 X193.707 Y113.396 E75.38997
G1 X194.421 Y113.481 E75.41025
G1 X194.421 Y176.519 E77.18835
G1 X195.135 Y176.422 E77.20868
G1 X195.135 Y113.578 E78.98131
G1 X195.850 Y113.720 E79.00185
G1 X195.850 Y176.280 E80.76647
G1 X196.564 Y176.138 E80.78701
G1 X196.564 Y113.862 E82.54361
G1 X197.278 Y114.004 E82.56415
G1 X197.278 Y175.996 E84.31274
G1 X197.992 Y175.808 E84.33358
G1 X197.992 Y114.192 E86.07154
G1 X198.706 Y114.394 E86.09247
G1 X198.706 Y175.606 E87.81906
G1 X199.420 Y175.405 E87.83999
G1 X199.420 Y114.595 E89.55523
G1 X199.841 Y114.714 E89.56754
G1 X200.134 Y114.822 E89.57638
G1 X200.134 Y175.178 E91.27881
G1 X200.849 Y174.914 E91.30028
G1 X200.849 Y115.086 E92.98785
G1 X201.563 Y115.349 E93.00932
G1 X201.563 Y174.651 E94.68202
G1 X202.277 Y174.379 E94.70358
G1 X202.277 Y115.621 E96.36095
G1 X202.991 Y115.950 E96.38313
G1 X202.991 Y174.050 E98.02193
G1 X203.705 Y173.721 E98.04411
G1 X203.705 Y116.279 E99.66433
G1 X204.419 Y116.609 E99.68652
G1 X204.419 Y173.391 E101.28817
G1 X205.134 Y172.995 E101.31120
G1 X205.134 Y117.005 E102.89051
G1 X205.848 Y117.405 E102.91359
G1 X205.848 Y172.595 E104.47033
G1 X206.562 Y172.195 E104.49342
G1 X206.562 Y117.805 E106.02760
G1 X207.276 Y118.274 E106.05170
G1 X207.276 Y171.726 E107.55942
G1 X207.990 Y171.249 E107.58365
G1 X207.990 Y118.751 E109.06446
G1 X208.704 Y119.228 E109.08868
G1 X208.704 Y170.772 E110.54257
G1 X209.419 Y170.211 E110.56819
G1 X209.419 Y119.789 E111.99041
G1 X210.133 Y120.352 E112.01606
G1 X210.133 Y169.648 E113.40652
G1 X210.682 Y169.215 E113.42623
G1 X210.847 Y169.062 E113.43258
G1 X210.847 Y120.938 E114.79001
G1 X211.561 Y121.598 E114.81744
G1 X211.561 Y168.402 E116.13762
G1 X212.275 Y167.742 E116.16506
G1 X212.275 Y122.258 E117.44800
G1 X212.518 Y122.482 E117.45731
G1 X212.989 Y122.993 E117.47691
G1 X212.989 Y167.007 E118.71842
G1 X213.704 Y166.235 E118.74810
G1 X213.704 Y123.765 E119.94602
G1 X214.215 Y124.318 E119.96727
G1 X214.418 Y124.576 E119.97651
G1 X214.418 Y165.424 E121.12872
G1 X215.132 Y164.518 E121.16126
G1 X215.132 Y125.482 E122.26236
G1 X215.846 Y126.406 E122.29532
G1 X215.846 Y163.594 E123.34425
G1 X216.560 Y162.525 E123.38051
G1 X216.560 Y127.475 E124.36915
G1 X217.152 Y128.361 E124.39921
G1 X217.274 Y128.579 E124.40626
G1 X217.274 Y161.421 E125.33261
G1 X217.988 Y160.145 E125.37383
G1 X217.988 Y129.855 E126.22824
G1 X218.374 Y130.543 E126.25049
G1 X218.703 Y131.256 E126.27264
G1 X218.703 Y158.744 E127.04800
G1 X219.417 Y157.195 E127.09611
G1 X219.417 Y132.805 E127.78407
G1 X220.131 Y134.739 E127.84222
G1 X220.131 Y155.261 E128.42110
G1 X220.286 Y154.841 E128.43374
G1 X220.845 Y152.859 E128.49182
G1 X220.845 Y137.141 E128.93517
G1 X220.965 Y137.566 E128.94762
G1 X221.453 Y140.018 E129.01815
G1 X221.559 Y140.919 E129.04372
G1 X221.559 Y150.270 E129.30748
G1 F3840
G1 X221.559 Y148.990 E128.35748
G1 E128.30748 F3000.00000
G92 E0
G1 X223.759 Y150.707 F4800.000
G1 E1.00000 F3000.00000
G1 F900
G1 X223.304 Y152.996 E1.07503
G1 X222.574 Y155.584 E1.16151
G1 X221.643 Y158.107 E1.24798
G1 X220.517 Y160.549 E1.33446
G1 X219.203 Y162.896 E1.42094
G1 X217.709 Y165.132 E1.50742
G1 X216.044 Y167.244 E1.59390
G1 X214.218 Y169.218 E1.68038
G1 X212.244 Y171.044 E1.76685
G1 X210.132 Y172.709 E1.85333
G1 X207.896 Y174.203 E1.93981
G1 X205.549 Y175.517 E2.02629
G1 X203.107 Y176.643 E2.11277
G1 X200.584 Y177.574 E2.19925
G1 X197.996 Y178.304 E2.28573
G1 X195.358 Y178.828 E2.37220
G1 X192.734 Y179.139 E2.45718
G1 X190.000 Y179.250 E2.54516
G1 X187.266 Y179.139 E2.63313
G1 X184.642 Y178.828 E2.71811
G1 X182.004 Y178.304 E2.80459
G1 X179.416 Y177.574 E2.89107
G1 X176.893 Y176.643 E2.97754
G1 X174.451 Y175.517 E3.06402
G1 X172.104 Y174.203 E3.15050
G1 X169.868 Y172.709 E3.23698
G1 X167.756 Y171.044 E3.32346
G1 X165.782 Y169.218 E3.40994
G1 X163.956 Y167.244 E3.49642
G1 X162.291 Y165.132 E3.58289
G1 X160.797 Y162.896 E3.66937
G1 X159.483 Y160.549 E3.75585
G1 X158.357 Y158.107 E3.84233
G1 X157.426 Y155.584 E3.92881
G1 X156.696 Y152.996 E4.01529
G1 X156.172 Y150.358 E4.10176
G1 X155.855 Y147.687 E4.18824
G1 X155.750 Y145.000 E4.27473
G1 X155.861 Y142.266 E4.36269
G1 X156.172 Y139.642 E4.44767
G1 X156.696 Y137.004 E4.53415
G1 X157.426 Y134.416 E4.62063
G1 X158.357 Y131.893 E4.70711
G1 X159.483 Y129.451 E4.79359
G1 X160.797 Y127.104 E4.88006
G1 X162.291 Y124.868 E4.96654
G1 X163.956 Y122.756 E5.05302
G1 X165.782 Y120.782 E5.13950
G1 X167.756 Y118.956 E5.22598
G1 X169.868 Y117.291 E5.31246
G1 X172.104 Y115.797 E5.39894
G1 X174.451 Y114.483 E5.48541
G1 X176.893 Y113.357 E5.57189
G1 X179.416 Y112.426 E5.65837
G1 X182.004 Y111.696 E5.74485
G1 X184.642 Y111.172 E5.83133
G1 X187.313 Y110.855 E5.91781
G1 X189.978 Y110.751 E6.00357
G1 X192.687 Y110.855 E6.09076
G1 X195.358 Y111.172 E6.17724
G1 X197.996 Y111.696 E6.26372
G1 X200.584 Y112.426 E6.35020
G1 X203.107 Y113.357 E6.43667
G1 X205.549 Y114.483 E6.52316
G1 X207.855 Y115.774 E6.60813
G1 X210.132 Y117.291 E6.69610
G1 X212.244 Y118.956 E6.78258
G1 X214.218 Y120.782 E6.86906
G1 X216.044 Y122.756 E6.95554
G1 X217.709 Y124.868 E7.04202
G1 X219.203 Y127.104 E7.12850
G1 X220.517 Y129.451 E7.21498
G1 X221.643 Y131.893 E7.30146
G1 X222.574 Y134.416 E7.38793
G1 X223.304 Y137.004 E7.47441
G1 X223.828 Y139.642 E7.56089
G1 X224.139 Y142.266 E7.64587
G1 X224.250 Y145.000 E7.73384
G1 X224.139 Y147.734 E7.82182
G1 X223.828 Y150.358 E7.90680
G1 X223.771 Y150.648 E7.91632
G1 X224.066 Y150.964 F4800.000
G1 F3840
G1 X223.521 Y151.904 E6.96632
G1 E6.91632 F3000.00000
G92 E0
G1 X161.338 Y115.699 F4800.000
G1 E1.00000 F3000.00000
G1 F900
G1 X160.699 Y116.338 E1.02908
G1 X159.893 Y116.749 E1.05815
G1 X159.000 Y116.890 E1.08723
G1 X158.107 Y116.749 E1.11630
G1 X157.301 Y116.338 E1.14538
G1 X156.662 Y115.699 E1.17445
G1 X156.251 Y114.893 E1.20353
G1 X156.110 Y114.000 E1.23260
G1 X156.251 Y113.107 E1.26168
G1 X156.662 Y112.301 E1.29075
G1 X157.301 Y111.662 E1.31983
G1 X158.107 Y111.251 E1.34890
G1 X159.000 Y111.110 E1.37798
G1 X159.893 Y111.251 E1.40705
G1 X160.699 Y111.662 E1.43613
G1 X161.338 Y112.301 E1.46520
G1 X161.749 Y113.107 E1.49428
G1 X161.890 Y114.000 E1.52335
G1 X161.749 Y114.893 E1.55243
G1 X161.365 Y115.645 E1.57957
G1 X161.005 Y115.456 F4800.000
G1 F900
G1 X160.456 Y116.005 E1.60450
G1 X159.766 Y116.357 E1.62943
G1 X159.000 Y116.478 E1.65436
G1 X158.234 Y116.357 E1.67929
G1 X157.544 Y116.005 E1.70422
G1 X156.995 Y115.456 E1.72915
G1 X156.643 Y114.766 E1.75408
G1 X156.522 Y114.000 E1.77900
G1 X156.643 Y113.234 E1.80393
G1 X156.995 Y112.544 E1.82886
G1 X157.544 Y111.995 E1.85379
G1 X158.234 Y111.643 E1.87872
G1 X159.000 Y111.522 E1.90365
G1 X159.766 Y111.643 E1.92858
G1 X160.456 Y111.995 E1.95350
G1 X161.005 Y112.544 E1.97843
G1 X161.357 Y113.234 E2.00336
G1 X161.478 Y114.000 E2.02829
G1 X161.357 Y114.766 E2.05322
G1 X161.032 Y115.403 E2.07622
G1 X161.167 Y115.822 F4800.000
G1 F3840
G1 X160.456 Y116.005 E1.45832
G1 X160.058 Y116.208 E1.12622
G1 E1.07622 F3000.00000
G92 E0
G1 X171.227 Y115.894 F4800.000
G1 E1.00000 F3000.00000
G1 F900
G1 X169.629 Y116.961 E1.06180
G1 X167.492 Y118.646 E1.14931
G1 X165.493 Y120.493 E1.23681
G1 X163.646 Y122.492 E1.32432
G1 X161.961 Y124.629 E1.41183
G1 X160.894 Y126.227 E1.47363
G1 X156.016 Y115.564 E1.85070
G1 X155.799 Y115.040 E1.86891
G1 X155.675 Y114.527 E1.88590
G1 X155.634 Y114.000 E1.90288
G1 X155.675 Y113.473 E1.91986
G1 X155.799 Y112.960 E1.93685
G1 X156.001 Y112.472 E1.95384
G1 X156.277 Y112.022 E1.97082
G1 X156.620 Y111.620 E1.98780
G1 X157.022 Y111.277 E2.00479
G1 X157.472 Y111.001 E2.02177
G1 X157.960 Y110.799 E2.03876
G1 X158.473 Y110.675 E2.05574
G1 X159.000 Y110.634 E2.07272
G1 X159.527 Y110.675 E2.08971
G1 X160.040 Y110.799 E2.10669
G1 X160.564 Y111.016 E2.12491
G1 X171.172 Y115.869 E2.50005
G1 F3840
G1 X170.127 Y116.608 E1.55005
G1 E1.50005 F3000.00000
G92 E0
G1 X159.893 Y173.251 F4800.000
G1 E1.00000 F3000.00000
G1 F900
G1 X160.699 Y173.662 E1.02907
G1 X161.338 Y174.301 E1.05815
G1 X161.749 Y175.107 E1.08723
G1 X161.890 Y176.000 E1.11630
G1 X161.749 Y176.893 E1.14538
G1 X161.338 Y177.699 E1.17445
G1 X160.699 Y178.338 E1.20353
G1 X159.893 Y178.749 E1.23260
G1 X159.000 Y178.890 E1.26168
G1 X158.107 Y178.749 E1.29075
G1 X157.301 Y178.338 E1.31983
G1 X157.197 Y178.234 E1.32455
G1 X156.662 Y177.699 E1.34890
G1 X156.251 Y176.893 E1.37798
G1 X156.110 Y176.000 E1.40705
G1 X156.251 Y175.107 E1.43613
G1 X156.662 Y174.301 E1.46520
G1 X157.301 Y173.662 E1.49428
G1 X158.107 Y173.251 E1.52335
G1 X159.000 Y173.110 E1.55243
G1 X159.834 Y173.242 E1.57957
G1 X159.766 Y173.643 F4800.000
G1 F900
G1 X160.456 Y173.995 E1.60450
G1 X161.005 Y174.544 E1.62943
G1 X161.357 Y175.234 E1.65436
G1 X161.478 Y176.000 E1.67929
G1 X161.357 Y176.766 E1.70422
G1 X161.005 Y177.456 E1.72915
G1 X160.456 Y178.005 E1.75407
G1 X159.766 Y178.357 E1.77900
G1 X159.000 Y178.478 E1.80393
G1 X158.234 Y178.357 E1.82886
G1 X157.544 Y178.005 E1.85379
G1 X157.485 Y177.946 E1.85644
G1 X156.995 Y177.456 E1.87872
G1 X156.643 Y176.766 E1.90365
