; generated by Slic3r Prusa Edition 1.41.0+win64 on 2018-09-24 at 19:36:48

; 

; external perimeters extrusion width = 0.45mm
; perimeters extrusion width = 0.45mm
; infill extrusion width = 0.45mm
; solid infill extrusion width = 0.45mm
; top infill extrusion width = 0.40mm

M107
M80 ; turn on PSU
M190 S50
M104 S190 ; start E heating
M17; enable motors
G28 X Y ; Z ; Home
M109 S190
G91
G1 E5 F200
G90
; Filament gcode
G21 ; set units to millimeters
G90 ; use absolute coordinates
M82 ; use absolute distances for extrusion
G92 E0
G1 Z0.200 F4800.000
G1 E-1.00000 F3000.00000
G92 E0
G1 X126.995 Y95.504 F4800.000
G1 E1.00000 F3000.00000
G1 F900
G1 X127.945 Y94.662 E1.04081
G1 X129.088 Y94.111 E1.08162
G1 X130.333 Y93.892 E1.12226
G1 X200.505 Y93.889 E3.37875
G1 X255.093 Y99.296 E5.14268
G1 X256.081 Y99.537 E5.17537
G1 X256.991 Y99.989 E5.20806
G1 X257.781 Y100.629 E5.24074
G1 X258.411 Y101.427 E5.27343
G1 X258.930 Y102.591 E5.31441
G1 X259.111 Y103.852 E5.35538
G1 X259.111 Y185.153 E7.96971
G1 X259.001 Y186.131 E8.00138
G1 X258.688 Y187.059 E8.03288
G1 X258.041 Y188.084 E8.07183
G1 X257.146 Y188.907 E8.11095
G1 X256.066 Y189.468 E8.15007
G1 X254.877 Y189.726 E8.18919
G1 X175.770 Y196.103 E10.74125
G1 X155.415 Y196.110 E11.39579
G1 X154.469 Y195.994 E11.42644
G1 X153.572 Y195.688 E11.45692
G1 X152.877 Y195.292 E11.48264
G1 X152.261 Y194.781 E11.50837
G1 X122.217 Y164.738 E12.87463
G1 X121.509 Y163.808 E12.91223
G1 X121.055 Y162.724 E12.95000
G1 X120.890 Y161.562 E12.98776
G1 X120.904 Y151.134 E13.32307
G1 X125.912 Y98.046 E15.03778
G1 X126.051 Y97.290 E15.06249
G1 X126.314 Y96.568 E15.08719
G1 X126.963 Y95.555 E15.12590
G1 X127.303 Y95.774 F4800.000
G1 F900
G1 X128.179 Y94.996 E15.16356
G1 X129.221 Y94.496 E15.20074
G1 X130.361 Y94.299 E15.23792
G1 X200.505 Y94.296 E17.49351
G1 X255.032 Y99.699 E19.25547
G1 X255.936 Y99.918 E19.28538
G1 X256.769 Y100.330 E19.31529
G1 X257.488 Y100.912 E19.34504
G1 X258.065 Y101.642 E19.37495
G1 X258.538 Y102.702 E19.41229
G1 X258.704 Y103.857 E19.44979
G1 X258.703 Y185.152 E22.06394
G1 X258.603 Y186.046 E22.09288
G1 X258.314 Y186.898 E22.12181
G1 X257.741 Y187.809 E22.15641
G1 X256.951 Y188.546 E22.19117
G1 X255.999 Y189.059 E22.22593
G1 X254.948 Y189.311 E22.26069
G1 X175.838 Y195.690 E24.81284
G1 X155.429 Y195.703 E25.46911
G1 X154.561 Y195.597 E25.49724
G1 X153.733 Y195.314 E25.52536
G1 X153.105 Y194.955 E25.54863
G1 X152.545 Y194.489 E25.57205
G1 X122.510 Y164.454 E26.93792
G1 X121.860 Y163.603 E26.97236
G1 X121.446 Y162.610 E27.00696
G1 X121.297 Y161.550 E27.04140
G1 X121.310 Y151.166 E27.37529
G1 X126.317 Y98.085 E29.08976
G1 X126.445 Y97.393 E29.11238
G1 X126.686 Y96.733 E29.13499
G1 X127.271 Y95.824 E29.16975
; PURGING FINISHED
G1 F3840
G1 X128.179 Y94.996 E28.25760
G1 X128.225 Y94.974 E28.21975
G1 E28.16975 F3000.00000
G92 E0
G1 X174.054 Y152.946 F4800.000
G1 E1.00000 F3000.00000
G1 F900
G1 X204.054 Y152.946 E1.96469
G1 X204.054 Y160.901 E2.22049
G1 X174.901 Y190.054 E3.54624
G1 X156.099 Y190.054 E4.15084
G1 X126.946 Y160.901 E5.47659
G1 X126.946 Y152.946 E5.73239
G1 X156.946 Y152.946 E6.69708
G1 X156.946 Y146.324 E6.91002
G1 X174.054 Y146.324 E7.46014
G1 X174.054 Y152.886 E7.67115
G1 X174.461 Y152.539 F4800.000
G1 F900
G1 X204.461 Y152.539 E8.63584
G1 X204.461 Y161.070 E8.91015
G1 X175.070 Y190.461 E10.24675
G1 X155.930 Y190.461 E10.86219
G1 X126.539 Y161.070 E12.19879
G1 X126.539 Y152.539 E12.47310
G1 X156.539 Y152.539 E13.43779
G1 X156.539 Y145.917 E13.65073
G1 X174.461 Y145.917 E14.22703
G1 X174.461 Y152.479 E14.43804
G1 X174.868 Y152.132 F4800.000
G1 F900
G1 X204.868 Y152.132 E15.40273
G1 X204.868 Y161.238 E15.69555
G1 X175.238 Y190.868 E17.04299
G1 X155.762 Y190.868 E17.66928
G1 X126.132 Y161.238 E19.01673
G1 X126.132 Y152.132 E19.30954
G1 X156.132 Y152.132 E20.27424
G1 X156.132 Y145.510 E20.48718
G1 X174.868 Y145.510 E21.08966
G1 X174.868 Y152.072 E21.30067
G1 X175.275 Y151.725 F4800.000
G1 F900
G1 X205.275 Y151.725 E22.26536
G1 X205.275 Y161.407 E22.57669
G1 X175.407 Y191.275 E23.93498
G1 X155.593 Y191.275 E24.57211
G1 X125.725 Y161.407 E25.93040
G1 X125.725 Y151.725 E26.24173
G1 X155.725 Y151.725 E27.20642
G1 X155.725 Y145.103 E27.41937
G1 X175.275 Y145.103 E28.04802
G1 X175.275 Y151.665 E28.25904
G1 X175.436 Y152.091 F4800.000
G1 X174.101 Y153.121
G1 F900
G1 X192.714 Y171.734 E29.11034
G1 X193.003 Y171.445 E29.12358
G1 X174.863 Y153.304 E29.95326
G1 X175.442 Y153.304 E29.97199
G1 X193.293 Y171.155 E30.78843
G1 X193.582 Y170.866 E30.80167
G1 X176.021 Y153.304 E31.60487
G1 X176.600 Y153.304 E31.62359
G1 X193.872 Y170.576 E32.41355
G1 X194.161 Y170.287 E32.42679
G1 X177.179 Y153.304 E33.20351
G1 X177.758 Y153.304 E33.22223
G1 X194.451 Y169.997 E33.98571
G1 X194.740 Y169.708 E33.99895
G1 X178.337 Y153.304 E34.74919
G1 X178.916 Y153.304 E34.76791
G1 X195.030 Y169.418 E35.50491
G1 X195.319 Y169.129 E35.51815
G1 X179.495 Y153.304 E36.24191
G1 X180.074 Y153.304 E36.26063
G1 X195.609 Y168.839 E36.97114
G1 X195.898 Y168.550 E36.98439
G1 X180.653 Y153.304 E37.68166
G1 X181.232 Y153.304 E37.70038
G1 X196.188 Y168.260 E38.38442
G1 X196.477 Y167.971 E38.39766
G1 X181.811 Y153.304 E39.06845
G1 X182.390 Y153.304 E39.08717
G1 X196.767 Y167.681 E39.74472
G1 X197.056 Y167.392 E39.75797
G1 X182.969 Y153.304 E40.40228
G1 X183.548 Y153.304 E40.42100
G1 X197.346 Y167.102 E41.05207
G1 X197.635 Y166.813 E41.06531
G1 X184.127 Y153.304 E41.68314
G1 X184.706 Y153.304 E41.70186
G1 X197.925 Y166.523 E42.30645
G1 X198.214 Y166.234 E42.31969
G1 X185.285 Y153.304 E42.91104
G1 X185.864 Y153.304 E42.92976
G1 X198.504 Y165.944 E43.50787
G1 X198.793 Y165.655 E43.52111
G1 X186.443 Y153.304 E44.08597
G1 X187.022 Y153.304 E44.10470
G1 X199.083 Y165.365 E44.65632
G1 X199.372 Y165.076 E44.66956
G1 X187.601 Y153.304 E45.20795
G1 X188.180 Y153.304 E45.22667
G1 X199.662 Y164.786 E45.75182
G1 X199.951 Y164.497 E45.76506
G1 X188.759 Y153.304 E46.27696
G1 X189.338 Y153.304 E46.29568
G1 X200.241 Y164.207 E46.79434
G1 X200.530 Y163.918 E46.80758
G1 X189.917 Y153.304 E47.29300
G1 X190.496 Y153.304 E47.31173
G1 X200.820 Y163.628 E47.78391
G1 X201.109 Y163.339 E47.79715
G1 X191.075 Y153.304 E48.25609
G1 X191.654 Y153.304 E48.27481
G1 X201.399 Y163.049 E48.72051
G1 X201.688 Y162.760 E48.73375
G1 X192.233 Y153.304 E49.16621
G1 X192.812 Y153.304 E49.18493
G1 X201.978 Y162.470 E49.60415
G1 X202.267 Y162.181 E49.61739
G1 X193.391 Y153.304 E50.02336
G1 X193.970 Y153.304 E50.04209
G1 X202.557 Y161.891 E50.43482
G1 X202.846 Y161.602 E50.44806
G1 X194.549 Y153.304 E50.82756
G1 X195.128 Y153.304 E50.84628
G1 X203.136 Y161.312 E51.21254
G1 X203.425 Y161.023 E51.22578
G1 X195.707 Y153.304 E51.57879
G1 X196.286 Y153.304 E51.59751
G1 X203.696 Y160.714 E51.93640
G1 X203.696 Y160.135 E51.95513
G1 X196.865 Y153.304 E52.26753
G1 X197.444 Y153.304 E52.28626
G1 X203.696 Y159.556 E52.57218
G1 X203.696 Y158.977 E52.59091
G1 X198.023 Y153.304 E52.85035
G1 X198.602 Y153.304 E52.86907
G1 X203.696 Y158.398 E53.10203
G1 X203.696 Y157.819 E53.12076
G1 X199.181 Y153.304 E53.32724
G1 X199.760 Y153.304 E53.34596
G1 X203.696 Y157.240 E53.52596
G1 X203.696 Y156.661 E53.54469
G1 X200.339 Y153.304 E53.69820
G1 X200.918 Y153.304 E53.71693
G1 X203.696 Y156.082 E53.84396
G1 X203.696 Y155.503 E53.86269
G1 X201.497 Y153.304 E53.96324
G1 X202.076 Y153.304 E53.98196
G1 X203.696 Y154.924 E54.05603
G1 X203.696 Y154.345 E54.07476
G1 X202.655 Y153.304 E54.12235
G1 X203.234 Y153.304 E54.14107
G1 X203.879 Y153.949 E54.17056
G1 F3840
G1 X203.234 Y153.304 E53.49390
G1 X202.866 Y153.304 E53.22056
G1 E53.17056 F3000.00000
G92 E0
G1 X173.879 Y147.109 F4800.000
G1 E1.00000 F3000.00000
G1 F900
G1 X173.452 Y146.682 E1.01952
G1 X172.873 Y146.682 E1.03825
G1 X173.696 Y147.505 E1.07587
G1 X173.696 Y148.084 E1.09460
G1 X172.294 Y146.682 E1.15871
G1 X171.715 Y146.682 E1.17743
G1 X173.696 Y148.663 E1.26802
G1 X173.696 Y149.242 E1.28675
G1 X171.136 Y146.682 E1.40382
G1 X170.557 Y146.682 E1.42254
G1 X173.696 Y149.821 E1.56609
G1 X173.696 Y150.400 E1.58482
G1 X169.978 Y146.682 E1.75485
G1 X169.399 Y146.682 E1.77358
G1 X173.696 Y150.979 E1.97009
G1 X173.696 Y151.558 E1.98882
G1 X168.820 Y146.682 E2.21182
G1 X168.241 Y146.682 E2.23054
G1 X173.696 Y152.137 E2.48002
G1 X173.696 Y152.716 E2.49875
G1 X167.662 Y146.682 E2.77471
G1 X167.083 Y146.682 E2.79343
G1 X192.424 Y172.024 E3.95247
G1 X192.135 Y172.313 E3.96571
G1 X166.504 Y146.682 E5.13799
G1 X165.925 Y146.682 E5.15672
G1 X191.845 Y172.603 E6.34224
G1 X191.556 Y172.892 E6.35548
G1 X165.346 Y146.682 E7.55424
G1 X164.767 Y146.682 E7.57297
G1 X191.266 Y173.182 E8.78497
G1 X190.977 Y173.471 E8.79821
G1 X164.188 Y146.682 E10.02345
G1 X163.609 Y146.682 E10.04218
G1 X190.687 Y173.761 E11.28066
G1 X190.398 Y174.050 E11.29390
G1 X163.030 Y146.682 E12.54563
G1 X162.451 Y146.682 E12.56435
G1 X190.108 Y174.340 E13.82932
G1 X189.819 Y174.629 E13.84256
G1 X161.872 Y146.682 E15.12077
G1 X161.293 Y146.682 E15.13949
G1 X189.529 Y174.919 E16.43094
G1 X189.240 Y175.208 E16.44418
G1 X160.714 Y146.682 E17.74887
G1 X160.135 Y146.682 E17.76759
G1 X188.950 Y175.498 E19.08552
G1 X188.661 Y175.787 E19.09876
G1 X159.556 Y146.682 E20.42993
G1 X158.977 Y146.682 E20.44866
G1 X188.371 Y176.077 E21.79307
G1 X188.082 Y176.366 E21.80631
G1 X158.398 Y146.682 E23.16396
G1 X157.819 Y146.682 E23.18269
G1 X187.792 Y176.656 E24.55358
G1 X187.503 Y176.945 E24.56682
G1 X157.304 Y146.747 E25.94800
G1 X157.304 Y147.326 E25.96673
G1 X187.213 Y177.235 E27.33467
G1 X186.924 Y177.524 E27.34791
G1 X157.304 Y147.905 E28.70261
G1 X157.304 Y148.484 E28.72133
G1 X186.634 Y177.814 E30.06279
G1 X186.345 Y178.103 E30.07603
G1 X157.304 Y149.063 E31.40425
G1 X157.304 Y149.642 E31.42298
G1 X186.055 Y178.393 E32.73795
G1 X185.766 Y178.682 E32.75119
G1 X157.304 Y150.221 E34.05293
G1 X157.304 Y150.800 E34.07166
G1 X185.476 Y178.972 E35.36015
G1 X185.187 Y179.261 E35.37339
G1 X157.304 Y151.379 E36.64865
G1 X157.304 Y151.958 E36.66737
G1 X184.897 Y179.551 E37.92939
G1 X184.608 Y179.840 E37.94263
G1 X157.304 Y152.537 E39.19140
G1 X157.304 Y153.116 E39.21012
G1 X184.318 Y180.130 E40.44566
G1 X184.029 Y180.419 E40.45890
G1 X156.914 Y153.304 E41.69904
G1 X156.335 Y153.304 E41.71777
G1 X183.739 Y180.709 E42.97116
G1 X183.450 Y180.998 E42.98440
G1 X155.756 Y153.304 E44.25103
G1 X155.177 Y153.304 E44.26975
G1 X183.160 Y181.288 E45.54962
G1 X182.871 Y181.577 E45.56286
G1 X154.598 Y153.304 E46.85597
G1 X154.019 Y153.304 E46.87470
G1 X182.581 Y181.867 E48.18105
G1 X182.292 Y182.156 E48.19429
G1 X153.440 Y153.304 E49.51388
G1 X152.861 Y153.304 E49.53261
G1 X182.002 Y182.446 E50.86544
G1 X181.713 Y182.735 E50.87868
G1 X152.282 Y153.304 E52.22475
G1 X151.703 Y153.304 E52.24348
G1 X181.423 Y183.025 E53.60279
G1 X181.134 Y183.314 E53.61603
G1 X151.124 Y153.304 E54.98859
G1 X150.545 Y153.304 E55.00732
G1 X180.844 Y183.604 E56.39311
G1 X180.555 Y183.893 E56.40635
G1 X149.966 Y153.304 E57.80539
G1 X149.387 Y153.304 E57.82411
G1 X180.265 Y184.183 E59.23639
G1 X179.976 Y184.472 E59.24963
G1 X148.808 Y153.304 E60.67515
G1 X148.229 Y153.304 E60.69388
G1 X179.686 Y184.762 E62.13264
G1 X179.397 Y185.051 E62.14588
G1 X147.650 Y153.304 E63.59788
G1 X147.071 Y153.304 E63.61660
G1 X179.107 Y185.341 E65.08184
G1 X178.818 Y185.630 E65.09508
G1 X146.492 Y153.304 E66.57357
G1 X145.913 Y153.304 E66.59229
G1 X178.528 Y185.920 E68.08401
G1 X178.239 Y186.209 E68.09726
G1 X145.334 Y153.304 E69.60222
G1 X144.755 Y153.304 E69.62094
G1 X177.949 Y186.499 E71.13915
G1 X177.660 Y186.788 E71.15239
G1 X144.176 Y153.304 E72.68383
G1 X143.597 Y153.304 E72.70256
G1 X177.370 Y187.078 E74.24725
G1 X177.081 Y187.367 E74.26049
G1 X143.018 Y153.304 E75.81841
G1 X142.439 Y153.304 E75.83714
G1 X176.791 Y187.657 E77.40831
G1 X176.502 Y187.946 E77.42155
G1 X141.860 Y153.304 E79.00596
G1 X141.281 Y153.304 E79.02468
G1 X176.212 Y188.236 E80.62233
G1 X175.923 Y188.525 E80.63557
G1 X140.702 Y153.304 E82.24646
G1 X140.123 Y153.304 E82.26519
G1 X175.633 Y188.815 E83.88932
G1 X175.344 Y189.104 E83.90256
G1 X139.544 Y153.304 E85.53993
G1 X138.965 Y153.304 E85.55866
G1 X175.054 Y189.394 E87.20927
G1 X174.765 Y189.683 E87.22251
G1 X138.386 Y153.304 E88.88636
G1 X137.807 Y153.304 E88.90509
G1 X174.198 Y189.696 E90.56950
G1 X173.619 Y189.696 E90.58823
G1 X137.228 Y153.304 E92.25264
G1 X136.649 Y153.304 E92.27137
G1 X173.040 Y189.696 E93.93578
G1 X172.461 Y189.696 E93.95451
G1 X136.070 Y153.304 E95.61893
G1 X135.491 Y153.304 E95.63765
G1 X171.882 Y189.696 E97.30207
G1 X171.303 Y189.696 E97.32079
G1 X134.912 Y153.304 E98.98521
G1 X134.333 Y153.304 E99.00393
G1 X170.724 Y189.696 E100.66835
G1 X170.145 Y189.696 E100.68707
G1 X133.754 Y153.304 E102.35149
G1 X133.175 Y153.304 E102.37021
G1 X169.566 Y189.696 E104.03463
G1 X168.987 Y189.696 E104.05335
G1 X132.596 Y153.304 E105.71777
G1 X132.017 Y153.304 E105.73649
G1 X168.408 Y189.696 E107.40091
G1 X167.829 Y189.696 E107.41964
G1 X131.438 Y153.304 E109.08405
G1 X130.859 Y153.304 E109.10278
G1 X167.250 Y189.696 E110.76719
G1 X166.671 Y189.696 E110.78592
G1 X130.280 Y153.304 E112.45033
G1 X129.701 Y153.304 E112.46906
G1 X166.092 Y189.696 E114.13347
G1 X165.513 Y189.696 E114.15220
G1 X129.122 Y153.304 E115.81661
G1 X128.543 Y153.304 E115.83534
G1 X164.934 Y189.696 E117.49975
G1 X164.355 Y189.696 E117.51848
G1 X127.964 Y153.304 E119.18289
G1 X127.385 Y153.304 E119.20162
G1 X163.776 Y189.696 E120.86604
G1 X163.197 Y189.696 E120.88476
G1 X127.304 Y153.803 E122.52638
G1 X127.304 Y154.382 E122.54511
G1 X162.618 Y189.696 E124.16024
G1 X162.039 Y189.696 E124.17897
G1 X127.304 Y154.961 E125.76762
G1 X127.304 Y155.540 E125.78635
G1 X161.460 Y189.696 E127.34852
G1 X160.881 Y189.696 E127.36725
G1 X127.304 Y156.119 E128.90294
G1 X127.304 Y156.698 E128.92167
G1 X160.302 Y189.696 E130.43088
G1 X159.723 Y189.696 E130.44960
G1 X127.304 Y157.277 E131.93233
G1 X127.304 Y157.856 E131.95106
G1 X159.144 Y189.696 E133.40731
G1 X158.565 Y189.696 E133.42603
G1 X127.304 Y158.435 E134.85580
G1 X127.304 Y159.014 E134.87452
G1 X157.986 Y189.696 E136.27781
G1 X157.407 Y189.696 E136.29653
G1 X127.304 Y159.593 E137.67334
G1 X127.304 Y160.172 E137.69206
G1 X156.828 Y189.696 E139.04238
G1 X156.249 Y189.696 E139.06111
G1 X127.121 Y160.568 E140.39333
G1 F3840
G1 X128.026 Y161.473 E139.44333
G1 E139.39333 F3000.00000
G92 E0
G1 X131.946 Y137.054 F4800.000
G1 E1.00000 F3000.00000
G1 F900
G1 X131.946 Y99.946 E2.19324
G1 X199.054 Y99.946 E4.35118
G1 X199.054 Y137.054 E5.54442
G1 X132.006 Y137.054 E7.70043
G1 X131.539 Y137.461 F4800.000
G1 F900
G1 X131.539 Y99.539 E8.91985
G1 X199.461 Y99.539 E11.10396
G1 X199.461 Y137.461 E12.32339
G1 X131.599 Y137.461 E14.50557
G1 X131.132 Y137.868 F4800.000
G1 F900
G1 X131.132 Y99.132 E15.75118
G1 X199.868 Y99.132 E17.96147
G1 X199.868 Y137.868 E19.20708
G1 X131.192 Y137.868 E21.41544
G1 X130.725 Y138.275 F4800.000
G1 F900
G1 X130.725 Y98.725 E22.68723
G1 X200.275 Y98.725 E24.92370
G1 X200.275 Y138.275 E26.19549
G1 X130.785 Y138.275 E28.43003
G1 X130.863 Y137.899 F4800.000
G1 F3840
G1 X130.783 Y136.995 E27.48003
G1 E27.43003 F3000.00000
G92 E0
G1 X132.121 Y136.051 F4800.000
G1 E1.00000 F3000.00000
G1 F900
G1 X132.766 Y136.696 E1.02946
G1 X133.344 Y136.696 E1.04816
G1 X132.304 Y135.656 E1.09570
G1 X132.304 Y135.077 E1.11441
G1 X133.923 Y136.696 E1.18841
G1 X134.502 Y136.696 E1.20712
G1 X132.304 Y134.498 E1.30758
G1 X132.304 Y133.919 E1.32629
G1 X135.081 Y136.696 E1.45320
G1 X135.659 Y136.696 E1.47191
G1 X132.304 Y133.341 E1.62529
G1 X132.304 Y132.762 E1.64400
G1 X136.238 Y136.696 E1.82383
G1 X136.817 Y136.696 E1.84254
G1 X132.304 Y132.183 E2.04883
G1 X132.304 Y131.604 E2.06754
G1 X137.396 Y136.696 E2.30029
G1 X137.974 Y136.696 E2.31900
G1 X132.304 Y131.026 E2.57821
G1 X132.304 Y130.447 E2.59692
G1 X138.553 Y136.696 E2.88259
G1 X139.132 Y136.696 E2.90130
G1 X132.304 Y129.868 E3.21342
G1 X132.304 Y129.289 E3.23213
G1 X139.711 Y136.696 E3.57072
G1 X140.289 Y136.696 E3.58943
G1 X132.304 Y128.711 E3.95447
G1 X132.304 Y128.132 E3.97318
G1 X140.868 Y136.696 E4.36469
G1 X141.447 Y136.696 E4.38340
G1 X132.304 Y127.553 E4.80136
G1 X132.304 Y126.974 E4.82007
G1 X142.026 Y136.696 E5.26449
G1 X142.604 Y136.696 E5.28320
