; generated by Slic3r Prusa Edition 1.41.0+win64 on 2018-09-25 at 18:54:39

; 

; external perimeters extrusion width = 0.45mm
; perimeters extrusion width = 0.45mm
; infill extrusion width = 0.45mm
; solid infill extrusion width = 0.45mm
; top infill extrusion width = 0.40mm

M107
M80 ; turn on PSU
M190 S50
M104 S190 ; start E heating
M17; enable motors
G28 X Y ; Z ; Home
M109 S190
G91
G1 E5 F200
G90
; Filament gcode
G21 ; set units to millimeters
G90 ; use absolute coordinates
M82 ; use absolute distances for extrusion
G92 E0
G1 Z0.200 F4800.000
G1 E-1.00000 F3000.00000
G92 E0
G1 X127.377 Y94.733 F4800.000
G1 E1.00000 F3000.00000
G1 F900
G1 X128.322 Y93.676 E1.04560
G1 X129.567 Y92.739 E1.09571
G1 X130.766 Y92.158 E1.13853
G1 X131.593 Y91.895 E1.16647
G1 X133.054 Y91.661 E1.21403
G1 X197.819 Y91.659 E3.29664
G1 X254.896 Y94.660 E5.13456
G1 X255.958 Y94.879 E5.16945
G1 X256.940 Y95.341 E5.20434
G1 X257.787 Y96.020 E5.23923
G1 X258.454 Y96.882 E5.27429
G1 X258.938 Y98.004 E5.31358
G1 X259.110 Y99.218 E5.35303
G1 X259.110 Y186.333 E8.15431
G1 X258.943 Y187.485 E8.19174
G1 X258.493 Y188.558 E8.22917
G1 X257.789 Y189.485 E8.26660
G1 X256.870 Y190.208 E8.30420
G1 X255.926 Y190.638 E8.33756
G1 X254.914 Y190.845 E8.37075
G1 X166.606 Y198.325 E11.22060
G1 X164.497 Y198.332 E11.28842
G1 X162.448 Y198.072 E11.35484
G1 X160.514 Y197.573 E11.41905
G1 X158.624 Y196.823 E11.48444
G1 X156.852 Y195.846 E11.54950
G1 X155.164 Y194.610 E11.61678
G1 X123.327 Y164.835 E13.01850
G1 X122.532 Y163.970 E13.05629
G1 X122.118 Y163.387 E13.07929
G1 X121.381 Y161.918 E13.13214
G1 X121.057 Y160.841 E13.16831
G1 X120.915 Y159.735 E13.20414
G1 X120.907 Y151.845 E13.45786
G1 X125.992 Y98.047 E15.19552
G1 X126.174 Y97.225 E15.22261
G1 X126.692 Y95.862 E15.26947
G1 X127.346 Y94.785 E15.31001
G1 X127.692 Y94.995 F4800.000
G1 F900
G1 X128.606 Y93.968 E15.35421
G1 X129.790 Y93.080 E15.40179
G1 X130.928 Y92.532 E15.44242
G1 X131.685 Y92.291 E15.46795
G1 X133.071 Y92.068 E15.51310
G1 X197.819 Y92.066 E17.59515
G1 X254.847 Y95.064 E19.43152
G1 X255.818 Y95.262 E19.46337
G1 X256.715 Y95.681 E19.49522
G1 X257.490 Y96.298 E19.52707
G1 X258.101 Y97.084 E19.55908
G1 X258.546 Y98.113 E19.59513
G1 X258.703 Y99.223 E19.63118
G1 X258.703 Y186.319 E22.43187
G1 X258.553 Y187.369 E22.46599
G1 X258.144 Y188.348 E22.50010
G1 X257.504 Y189.194 E22.53421
G1 X256.667 Y189.855 E22.56849
G1 X255.808 Y190.248 E22.59888
G1 X254.877 Y190.440 E22.62944
G1 X166.572 Y197.919 E25.47919
G1 X164.520 Y197.926 E25.54517
G1 X162.528 Y197.673 E25.60973
G1 X160.643 Y197.187 E25.67233
G1 X158.801 Y196.456 E25.73606
G1 X157.074 Y195.504 E25.79948
G1 X155.429 Y194.301 E25.86502
G1 X123.606 Y164.538 E27.26612
G1 X122.850 Y163.715 E27.30207
G1 X122.471 Y163.183 E27.32306
G1 X121.767 Y161.790 E27.37326
G1 X121.455 Y160.755 E27.40802
G1 X121.318 Y159.683 E27.44278
G1 X121.313 Y151.884 E27.69357
G1 X126.395 Y98.104 E29.43063
G1 X126.562 Y97.349 E29.45551
G1 X127.053 Y96.050 E29.50016
G1 X127.661 Y95.046 E29.53791
; PURGING FINISHED
G1 F3840
G1 X128.505 Y94.083 E28.58791
G1 E28.53791 F3000.00000
G92 E0
G1 X174.054 Y150.716 F4800.000
G1 E1.00000 F3000.00000
G1 F900
G1 X202.662 Y150.716 E1.91992
G1 X202.978 Y150.783 E1.93032
G1 X203.273 Y150.914 E1.94070
G1 X203.534 Y151.104 E1.95110
G1 X203.751 Y151.345 E1.96149
G1 X203.912 Y151.624 E1.97188
G1 X204.012 Y151.932 E1.98228
G1 X204.054 Y152.329 E1.99512
G1 X204.054 Y159.177 E2.21533
G1 X204.012 Y159.574 E2.22818
G1 X203.912 Y159.882 E2.23857
G1 X203.751 Y160.162 E2.24896
G1 X203.474 Y160.469 E2.26224
G1 X171.908 Y189.997 E3.65218
G1 X170.886 Y190.739 E3.69281
G1 X169.780 Y191.347 E3.73340
G1 X168.606 Y191.812 E3.77399
G1 X167.383 Y192.126 E3.81458
G1 X166.131 Y192.284 E3.85516
G1 X164.869 Y192.284 E3.89575
G1 X163.617 Y192.126 E3.93634
G1 X162.394 Y191.812 E3.97693
G1 X161.220 Y191.347 E4.01752
G1 X160.114 Y190.739 E4.05810
G1 X159.092 Y189.997 E4.09874
G1 X127.526 Y160.469 E5.48867
G1 X127.249 Y160.162 E5.50195
G1 X127.088 Y159.882 E5.51234
G1 X126.988 Y159.574 E5.52274
G1 X126.946 Y159.177 E5.53558
G1 X126.946 Y152.329 E5.75580
G1 X126.988 Y151.932 E5.76864
G1 X127.088 Y151.624 E5.77904
G1 X127.249 Y151.345 E5.78943
G1 X127.466 Y151.104 E5.79981
G1 X127.727 Y150.914 E5.81021
G1 X128.022 Y150.783 E5.82060
G1 X128.338 Y150.716 E5.83099
G1 X156.946 Y150.716 E6.75092
G1 X156.946 Y144.077 E6.96439
G1 X174.054 Y144.077 E7.51450
G1 X174.054 Y150.656 E7.72604
G1 X174.461 Y150.309 F4800.000
G1 F900
G1 X202.704 Y150.309 E8.63425
G1 X203.104 Y150.394 E8.64740
G1 X203.478 Y150.560 E8.66054
G1 X203.808 Y150.800 E8.67369
G1 X204.082 Y151.104 E8.68683
G1 X204.286 Y151.458 E8.69997
G1 X204.412 Y151.847 E8.71312
G1 X204.461 Y152.308 E8.72802
G1 X204.461 Y159.199 E8.94961
G1 X204.412 Y159.660 E8.96451
G1 X204.286 Y160.048 E8.97766
G1 X204.082 Y160.402 E8.99080
G1 X203.765 Y160.754 E9.00602
G1 X172.167 Y190.311 E10.39733
G1 X171.104 Y191.084 E10.43960
G1 X169.953 Y191.717 E10.48183
G1 X168.732 Y192.200 E10.52407
G1 X167.460 Y192.527 E10.56630
G1 X166.157 Y192.691 E10.60854
G1 X164.843 Y192.691 E10.65077
G1 X163.540 Y192.527 E10.69300
G1 X162.268 Y192.200 E10.73524
G1 X161.047 Y191.717 E10.77748
G1 X159.896 Y191.084 E10.81971
G1 X158.833 Y190.311 E10.86198
G1 X127.235 Y160.754 E12.25329
G1 X126.918 Y160.402 E12.26850
G1 X126.714 Y160.048 E12.28165
G1 X126.588 Y159.660 E12.29479
G1 X126.539 Y159.199 E12.30970
G1 X126.539 Y152.308 E12.53129
G1 X126.588 Y151.847 E12.54619
G1 X126.714 Y151.458 E12.55934
G1 X126.918 Y151.104 E12.57248
G1 X127.192 Y150.800 E12.58562
G1 X127.522 Y150.560 E12.59877
G1 X127.896 Y150.394 E12.61191
G1 X128.296 Y150.309 E12.62505
G1 X156.539 Y150.309 E13.53326
G1 X156.539 Y143.670 E13.74673
G1 X174.461 Y143.670 E14.32303
G1 X174.461 Y150.249 E14.53457
G1 X174.868 Y149.902 F4800.000
G1 F900
G1 X202.747 Y149.902 E15.43107
G1 X203.231 Y150.004 E15.44696
G1 X203.682 Y150.205 E15.46286
G1 X204.082 Y150.496 E15.47875
G1 X204.413 Y150.863 E15.49465
G1 X204.660 Y151.291 E15.51054
G1 X204.813 Y151.762 E15.52644
G1 X204.868 Y152.286 E15.54340
G1 X204.868 Y159.220 E15.76637
G1 X204.813 Y159.745 E15.78333
G1 X204.660 Y160.215 E15.79923
G1 X204.413 Y160.643 E15.81512
G1 X204.056 Y161.039 E15.83228
G1 X172.427 Y190.626 E17.22496
G1 X171.323 Y191.428 E17.26886
G1 X170.127 Y192.086 E17.31274
G1 X168.858 Y192.588 E17.35662
G1 X167.536 Y192.927 E17.40051
G1 X166.182 Y193.098 E17.44439
G1 X164.818 Y193.098 E17.48827
G1 X163.464 Y192.927 E17.53215
G1 X162.142 Y192.588 E17.57604
G1 X160.873 Y192.086 E17.61992
G1 X159.677 Y191.428 E17.66380
G1 X158.573 Y190.626 E17.70770
G1 X126.944 Y161.039 E19.10038
G1 X126.587 Y160.643 E19.11754
G1 X126.340 Y160.215 E19.13343
G1 X126.187 Y159.745 E19.14933
G1 X126.132 Y159.220 E19.16629
G1 X126.132 Y152.286 E19.38926
G1 X126.187 Y151.762 E19.40622
G1 X126.340 Y151.291 E19.42212
G1 X126.587 Y150.863 E19.43801
G1 X126.918 Y150.496 E19.45391
G1 X127.318 Y150.205 E19.46981
G1 X127.769 Y150.004 E19.48570
G1 X128.253 Y149.902 E19.50159
G1 X156.132 Y149.902 E20.39809
G1 X156.132 Y143.263 E20.61156
G1 X174.868 Y143.263 E21.21404
G1 X174.868 Y149.842 E21.42558
G1 X175.275 Y149.495 F4800.000
G1 F900
G1 X202.790 Y149.495 E22.31036
G1 X203.357 Y149.615 E22.32901
G1 X203.887 Y149.851 E22.34765
G1 X204.356 Y150.192 E22.36630
G1 X204.744 Y150.623 E22.38495
G1 X205.034 Y151.125 E22.40359
G1 X205.213 Y151.676 E22.42224
G1 X205.275 Y152.265 E22.44127
G1 X205.275 Y159.241 E22.66560
G1 X205.213 Y159.830 E22.68463
G1 X205.034 Y160.381 E22.70328
G1 X204.744 Y160.884 E22.72193
G1 X204.347 Y161.325 E22.74102
G1 X172.687 Y190.940 E24.13507
G1 X171.541 Y191.773 E24.18061
G1 X170.300 Y192.455 E24.22614
G1 X168.984 Y192.976 E24.27167
G1 X167.613 Y193.328 E24.31720
G1 X166.208 Y193.505 E24.36272
G1 X164.792 Y193.505 E24.40825
G1 X163.387 Y193.328 E24.45378
G1 X162.016 Y192.976 E24.49931
G1 X160.700 Y192.455 E24.54484
G1 X159.459 Y191.773 E24.59037
G1 X158.313 Y190.940 E24.63591
G1 X126.653 Y161.325 E26.02996
G1 X126.256 Y160.884 E26.04905
G1 X125.966 Y160.381 E26.06770
G1 X125.787 Y159.830 E26.08635
G1 X125.725 Y159.241 E26.10537
G1 X125.725 Y152.265 E26.32971
G1 X125.787 Y151.676 E26.34874
G1 X125.966 Y151.125 E26.36738
G1 X126.256 Y150.623 E26.38603
G1 X126.644 Y150.192 E26.40468
G1 X127.113 Y149.851 E26.42332
G1 X127.643 Y149.615 E26.44197
G1 X128.210 Y149.495 E26.46062
G1 X155.725 Y149.495 E27.34540
G1 X155.725 Y142.856 E27.55887
G1 X175.275 Y142.856 E28.18753
G1 X175.275 Y149.435 E28.39907
G1 X175.436 Y149.861 F4800.000
G1 F3840
G1 X176.555 Y149.437 E27.44907
G1 E27.39907 F3000.00000
G92 E0
G1 X173.879 Y145.069 F4800.000
G1 E1.00000 F3000.00000
G1 F900
G1 X173.245 Y144.435 E1.02891
G1 X172.668 Y144.435 E1.04755
G1 X173.696 Y145.463 E1.09447
G1 X173.696 Y146.041 E1.11311
G1 X172.090 Y144.435 E1.18640
G1 X171.512 Y144.435 E1.20505
G1 X173.696 Y146.619 E1.30470
G1 X173.696 Y147.197 E1.32335
G1 X170.934 Y144.435 E1.44937
G1 X170.357 Y144.435 E1.46802
G1 X173.696 Y147.774 E1.62042
G1 X173.696 Y148.352 E1.63907
G1 X169.779 Y144.435 E1.81783
G1 X169.201 Y144.435 E1.83648
G1 X173.696 Y148.930 E2.04162
G1 X173.696 Y149.508 E2.06026
G1 X168.623 Y144.435 E2.29177
G1 X168.045 Y144.435 E2.31042
G1 X173.696 Y150.086 E2.56830
G1 X173.696 Y150.663 E2.58695
G1 X167.468 Y144.435 E2.87119
G1 X166.890 Y144.435 E2.88984
G1 X192.602 Y170.148 E4.06338
G1 X192.901 Y169.869 E4.07658
G1 X174.106 Y151.074 E4.93438
G1 X174.684 Y151.074 E4.95303
G1 X193.199 Y169.589 E5.79809
G1 X193.498 Y169.310 E5.81128
G1 X175.262 Y151.074 E6.64360
G1 X175.839 Y151.074 E6.66225
G1 X193.796 Y169.031 E7.48182
G1 X194.095 Y168.752 E7.49501
G1 X176.417 Y151.074 E8.30184
G1 X176.995 Y151.074 E8.32048
G1 X194.394 Y168.472 E9.11456
G1 X194.692 Y168.193 E9.12776
G1 X177.573 Y151.074 E9.90909
G1 X178.151 Y151.074 E9.92774
G1 X194.991 Y167.914 E10.69633
G1 X195.289 Y167.635 E10.70952
G1 X178.728 Y151.074 E11.46536
G1 X179.306 Y151.074 E11.48401
G1 X195.588 Y167.355 E12.22711
G1 X195.886 Y167.076 E12.24030
G1 X179.884 Y151.074 E12.97066
G1 X180.462 Y151.074 E12.98930
G1 X196.185 Y166.797 E13.70691
G1 X196.483 Y166.518 E13.72010
G1 X181.040 Y151.074 E14.42497
G1 X181.617 Y151.074 E14.44361
G1 X196.782 Y166.238 E15.13573
G1 X197.080 Y165.959 E15.14892
G1 X182.195 Y151.074 E15.82830
G1 X182.773 Y151.074 E15.84694
G1 X197.379 Y165.680 E16.51357
G1 X197.677 Y165.401 E16.52676
G1 X183.351 Y151.074 E17.18064
G1 X183.928 Y151.074 E17.19929
G1 X197.976 Y165.121 E17.84043
G1 X198.274 Y164.842 E17.85362
G1 X184.506 Y151.074 E18.48201
G1 X185.084 Y151.074 E18.50066
G1 X198.573 Y164.563 E19.11630
G1 X198.871 Y164.284 E19.12950
G1 X185.662 Y151.074 E19.73240
G1 X186.240 Y151.074 E19.75104
G1 X199.170 Y164.004 E20.34120
G1 X199.469 Y163.725 E20.35439
G1 X186.817 Y151.074 E20.93180
G1 X187.395 Y151.074 E20.95045
G1 X199.767 Y163.446 E21.51511
G1 X200.066 Y163.167 E21.52830
G1 X187.973 Y151.074 E22.08022
G1 X188.551 Y151.074 E22.09887
G1 X200.364 Y162.887 E22.63804
G1 X200.663 Y162.608 E22.65124
G1 X189.129 Y151.074 E23.17766
G1 X189.706 Y151.074 E23.19631
G1 X200.961 Y162.329 E23.70999
G1 X201.260 Y162.050 E23.72319
G1 X190.284 Y151.074 E24.22412
G1 X190.862 Y151.074 E24.24277
G1 X201.558 Y161.770 E24.73096
G1 X201.857 Y161.491 E24.74416
G1 X191.440 Y151.074 E25.21960
G1 X192.017 Y151.074 E25.23825
G1 X202.155 Y161.212 E25.70095
G1 X202.454 Y160.933 E25.71414
G1 X192.595 Y151.074 E26.16410
G1 X193.173 Y151.074 E26.18275
G1 X202.752 Y160.653 E26.61996
G1 X203.051 Y160.374 E26.63315
G1 X193.751 Y151.074 E27.05761
G1 X194.329 Y151.074 E27.07626
G1 X203.339 Y160.084 E27.48749
G1 X203.459 Y159.950 E27.49330
G1 X203.577 Y159.745 E27.50094
G1 X194.906 Y151.074 E27.89670
G1 X195.484 Y151.074 E27.91534
G1 X203.683 Y159.273 E28.28957
G1 X203.696 Y158.708 E28.30783
G1 X196.062 Y151.074 E28.65623
G1 X196.640 Y151.074 E28.67488
G1 X203.696 Y158.130 E28.99692
G1 X203.696 Y157.552 E29.01556
G1 X197.217 Y151.074 E29.31123
G1 X197.795 Y151.074 E29.32987
G1 X203.696 Y156.974 E29.59917
G1 X203.696 Y156.396 E29.61781
G1 X198.373 Y151.074 E29.86074
G1 X198.951 Y151.074 E29.87938
G1 X203.696 Y155.819 E30.09594
G1 X203.696 Y155.241 E30.11458
G1 X199.529 Y151.074 E30.30476
G1 X200.106 Y151.074 E30.32341
G1 X203.696 Y154.663 E30.48722
G1 X203.696 Y154.085 E30.50587
G1 X200.684 Y151.074 E30.64331
G1 X201.262 Y151.074 E30.66196
G1 X203.696 Y153.508 E30.77303
G1 X203.696 Y152.930 E30.79167
G1 X201.840 Y151.074 E30.87637
G1 X202.418 Y151.074 E30.89502
G1 X203.879 Y152.535 E30.96171
G1 F3840
G1 X202.974 Y151.630 E30.01171
G1 E29.96171 F3000.00000
G92 E0
G1 X192.433 Y170.557 F4800.000
G1 E1.00000 F3000.00000
G1 F900
G1 X166.312 Y144.435 E2.19220
G1 X165.734 Y144.435 E2.21085
G1 X192.005 Y170.706 E3.40988
G1 X191.707 Y170.986 E3.42307
G1 X165.156 Y144.435 E4.63485
G1 X164.579 Y144.435 E4.65350
G1 X191.408 Y171.265 E5.87802
G1 X191.110 Y171.544 E5.89121
G1 X164.001 Y144.435 E7.12848
G1 X163.423 Y144.435 E7.14713
G1 X190.811 Y171.824 E8.39714
G1 X190.513 Y172.103 E8.41033
G1 X162.845 Y144.435 E9.67309
G1 X162.268 Y144.435 E9.69174
G1 X190.214 Y172.382 E10.96724
G1 X189.916 Y172.661 E10.98043
G1 X161.690 Y144.435 E12.26868
G1 X161.112 Y144.435 E12.28733
G1 X189.617 Y172.941 E13.58832
G1 X189.319 Y173.220 E13.60152
G1 X160.534 Y144.435 E14.91526
G1 X159.956 Y144.435 E14.93390
G1 X189.020 Y173.499 E16.26039
G1 X188.721 Y173.778 E16.27358
G1 X159.379 Y144.435 E17.61281
G1 X158.801 Y144.435 E17.63146
G1 X188.423 Y174.058 E18.98343
G1 X188.124 Y174.337 E18.99663
G1 X158.223 Y144.435 E20.36135
G1 X157.645 Y144.435 E20.37999
G1 X187.826 Y174.616 E21.75746
G1 X187.527 Y174.895 E21.77065
G1 X157.304 Y144.672 E23.15005
G1 X157.304 Y145.250 E23.16870
G1 X187.229 Y175.175 E24.53447
G1 X186.930 Y175.454 E24.54766
G1 X157.304 Y145.828 E25.89981
G1 X157.304 Y146.406 E25.91845
G1 X186.632 Y175.733 E27.25697
G1 X186.333 Y176.012 E27.27017
G1 X157.304 Y146.984 E28.59506
G1 X157.304 Y147.561 E28.61371
G1 X186.035 Y176.292 E29.92498
G1 X185.736 Y176.571 E29.93817
G1 X157.304 Y148.139 E31.23582
G1 X157.304 Y148.717 E31.25446
G1 X185.438 Y176.850 E32.53848
G1 X185.139 Y177.129 E32.55167
G1 X157.304 Y149.295 E33.82207
G1 X157.304 Y149.872 E33.84072
G1 X184.841 Y177.409 E35.09749
G1 X184.542 Y177.688 E35.11068
G1 X157.304 Y150.450 E36.35382
G1 X157.304 Y151.028 E36.37247
G1 X184.243 Y177.967 E37.60199
G1 X183.945 Y178.246 E37.61518
G1 X156.773 Y151.074 E38.85535
G1 X156.195 Y151.074 E38.87400
G1 X183.646 Y178.526 E40.12691
G1 X183.348 Y178.805 E40.14010
G1 X155.617 Y151.074 E41.40576
G1 X155.039 Y151.074 E41.42441
G1 X183.049 Y179.084 E42.70281
G1 X182.751 Y179.363 E42.71600
G1 X154.461 Y151.074 E44.00715
G1 X153.884 Y151.074 E44.02580
G1 X182.452 Y179.643 E45.32969
G1 X182.154 Y179.922 E45.34288
G1 X153.306 Y151.074 E46.65952
G1 X152.728 Y151.074 E46.67817
G1 X181.855 Y180.201 E48.00755
G1 X181.557 Y180.480 E48.02075
G1 X152.150 Y151.074 E49.36288
G1 X151.573 Y151.074 E49.38152
G1 X181.258 Y180.760 E50.73640
G1 X180.960 Y181.039 E50.74959
G1 X150.995 Y151.074 E52.11721
G1 X150.417 Y151.074 E52.13586
G1 X180.661 Y181.318 E53.51623
G1 X180.363 Y181.597 E53.52942
G1 X149.839 Y151.074 E54.92253
G1 X149.261 Y151.074 E54.94118
G1 X180.064 Y181.877 E56.34703
G1 X179.766 Y182.156 E56.36023
G1 X148.684 Y151.074 E57.77883
G1 X148.106 Y151.074 E57.79747
G1 X179.467 Y182.435 E59.22882
G1 X179.168 Y182.714 E59.24201
G1 X147.528 Y151.074 E60.68611
G1 X146.950 Y151.074 E60.70475
G1 X178.870 Y182.994 E62.16159
G1 X178.571 Y183.273 E62.17479
G1 X146.372 Y151.074 E63.64437
G1 X145.795 Y151.074 E63.66302
G1 X178.273 Y183.552 E65.14534
G1 X177.974 Y183.831 E65.15854
G1 X145.217 Y151.074 E66.65361
G1 X144.639 Y151.074 E66.67226
G1 X177.676 Y184.111 E68.18008
G1 X177.377 Y184.390 E68.19327
G1 X144.061 Y151.074 E69.71384
G1 X143.484 Y151.074 E69.73248
G1 X177.079 Y184.669 E71.26579
G1 X176.780 Y184.948 E71.27898
G1 X142.906 Y151.074 E72.82504
G1 X142.328 Y151.074 E72.84369
G1 X176.482 Y185.228 E74.40249
G1 X176.183 Y185.507 E74.41568
G1 X141.750 Y151.074 E75.98723
G1 X141.172 Y151.074 E76.00587
G1 X175.885 Y185.786 E77.59017
G1 X175.586 Y186.065 E77.60336
